(.../Documents/EAGLE/ulps/pcb-gcode.ulp)
(Copyright 2005 - 2012 by John Johnson)
(See readme.txt for licensing terms.)
(This file generated from the board:)
(.../Senior_Design/power_layout_SLIM.brd)
(Current profile is .../EAGLE/ulps/profiles/generic.pp  )
(This file generated 4/15/2020 7:00 PM)
(Settings from pcb-machine.h)
(  Tool Size)
(0.8000 )
(Z Axis Settings)
(  High     Up        Down     Drill)
(12.7000 	2.5400 	-0.1778 	-0.8128 )
(spindle on time = 3.0000)
(milling depth = -0.2540)
(text depth = -0.1270)
(tool change at 12.7000 15.2400 25.4000 )
(feed rate xy = F508.00 )
(feed rate z  = F254.00 )
(Settings from pcb-defaults.h)
(isolate min = 0.1000)
(isolate max = 2.0000)
(isolate step = 0.4000)
(Generated top outlines, top drill, )
(Unit of measure: mm)
(Metric Mode)
G21
(Absolute Coordinates)
G90
G00 X0.0000 Y0.0000 
M03
G04 P3.000000
G00 Z2.5400 
G00 X28.6720 Y2.9573 
G01 Z-0.1778 F254.00 
G01 X28.6720 Y4.0027 F508.00 
G01 X27.9327 Y4.7420 
G01 X26.8873 Y4.7420 
G01 X26.1480 Y4.0027 
G01 X26.1480 Y2.9573 
G01 X26.8873 Y2.2180 
G01 X27.9327 Y2.2180 
G01 X28.6720 Y2.9573 
G00 Z2.5400 
G00 X31.2120 Y2.9573 
G01 Z-0.1778 F254.00 
G01 X31.2120 Y4.0027 F508.00 
G01 X30.4727 Y4.7420 
G01 X29.4273 Y4.7420 
G01 X28.6880 Y4.0027 
G01 X28.6880 Y2.9573 
G01 X29.4273 Y2.2180 
G01 X30.4727 Y2.2180 
G01 X31.2120 Y2.9573 
G00 Z2.5400 
G00 X33.7520 Y2.9573 
G01 Z-0.1778 F254.00 
G01 X33.7520 Y4.0027 F508.00 
G01 X33.0127 Y4.7420 
G01 X31.9673 Y4.7420 
G01 X31.2280 Y4.0027 
G01 X31.2280 Y2.9573 
G01 X31.9673 Y2.2180 
G01 X33.0127 Y2.2180 
G01 X33.7520 Y2.9573 
G00 Z2.5400 
G00 X36.2920 Y2.9573 
G01 Z-0.1778 F254.00 
G01 X36.2920 Y4.0027 F508.00 
G01 X35.5527 Y4.7420 
G01 X34.5073 Y4.7420 
G01 X33.7680 Y4.0027 
G01 X33.7680 Y2.9573 
G01 X34.5073 Y2.2180 
G01 X35.5527 Y2.2180 
G01 X36.2920 Y2.9573 
G00 Z2.5400 
G00 X38.8320 Y2.9573 
G01 Z-0.1778 F254.00 
G01 X38.8320 Y4.0027 F508.00 
G01 X38.0927 Y4.7420 
G01 X37.0473 Y4.7420 
G01 X36.3080 Y4.0027 
G01 X36.3080 Y2.9573 
G01 X37.0473 Y2.2180 
G01 X38.0927 Y2.2180 
G01 X38.8320 Y2.9573 
G00 Z2.5400 
G00 X41.3720 Y2.9573 
G01 Z-0.1778 F254.00 
G01 X41.3720 Y4.0027 F508.00 
G01 X40.6327 Y4.7420 
G01 X39.5873 Y4.7420 
G01 X38.8480 Y4.0027 
G01 X38.8480 Y2.9573 
G01 X39.5873 Y2.2180 
G01 X40.6327 Y2.2180 
G01 X41.3720 Y2.9573 
G00 Z2.5400 
G00 X28.6720 Y5.4973 
G01 Z-0.1778 F254.00 
G01 X28.6720 Y6.5427 F508.00 
G01 X27.9327 Y7.2820 
G01 X26.8873 Y7.2820 
G01 X26.1480 Y6.5427 
G01 X26.1480 Y5.4973 
G01 X26.8873 Y4.7580 
G01 X27.9327 Y4.7580 
G01 X28.6720 Y5.4973 
G00 Z2.5400 
G00 X31.2120 Y5.4973 
G01 Z-0.1778 F254.00 
G01 X31.2120 Y6.5427 F508.00 
G01 X30.4727 Y7.2820 
G01 X29.4273 Y7.2820 
G01 X28.6880 Y6.5427 
G01 X28.6880 Y5.4973 
G01 X29.4273 Y4.7580 
G01 X30.4727 Y4.7580 
G01 X31.2120 Y5.4973 
G00 Z2.5400 
G00 X33.7520 Y5.4973 
G01 Z-0.1778 F254.00 
G01 X33.7520 Y6.5427 F508.00 
G01 X33.0127 Y7.2820 
G01 X31.9673 Y7.2820 
G01 X31.2280 Y6.5427 
G01 X31.2280 Y5.4973 
G01 X31.9673 Y4.7580 
G01 X33.0127 Y4.7580 
G01 X33.7520 Y5.4973 
G00 Z2.5400 
G00 X36.2920 Y5.4973 
G01 Z-0.1778 F254.00 
G01 X36.2920 Y6.5427 F508.00 
G01 X35.5527 Y7.2820 
G01 X34.5073 Y7.2820 
G01 X33.7680 Y6.5427 
G01 X33.7680 Y5.4973 
G01 X34.5073 Y4.7580 
G01 X35.5527 Y4.7580 
G01 X36.2920 Y5.4973 
G00 Z2.5400 
G00 X38.8320 Y5.4973 
G01 Z-0.1778 F254.00 
G01 X38.8320 Y6.5427 F508.00 
G01 X38.0927 Y7.2820 
G01 X37.0473 Y7.2820 
G01 X36.3080 Y6.5427 
G01 X36.3080 Y5.4973 
G01 X37.0473 Y4.7580 
G01 X38.0927 Y4.7580 
G01 X38.8320 Y5.4973 
G00 Z2.5400 
G00 X41.3720 Y5.4973 
G01 Z-0.1778 F254.00 
G01 X41.3720 Y6.5427 F508.00 
G01 X40.6327 Y7.2820 
G01 X39.5873 Y7.2820 
G01 X38.8480 Y6.5427 
G01 X38.8480 Y5.4973 
G01 X39.5873 Y4.7580 
G01 X40.6327 Y4.7580 
G01 X41.3720 Y5.4973 
G00 Z2.5400 
G00 X43.9120 Y2.9573 
G01 Z-0.1778 F254.00 
G01 X43.9120 Y4.0027 F508.00 
G01 X43.1727 Y4.7420 
G01 X42.1273 Y4.7420 
G01 X41.3880 Y4.0027 
G01 X41.3880 Y2.9573 
G01 X42.1273 Y2.2180 
G01 X43.1727 Y2.2180 
G01 X43.9120 Y2.9573 
G00 Z2.5400 
G00 X43.9120 Y5.4973 
G01 Z-0.1778 F254.00 
G01 X43.9120 Y6.5427 F508.00 
G01 X43.1727 Y7.2820 
G01 X42.1273 Y7.2820 
G01 X41.3880 Y6.5427 
G01 X41.3880 Y5.4973 
G01 X42.1273 Y4.7580 
G01 X43.1727 Y4.7580 
G01 X43.9120 Y5.4973 
G00 Z2.5400 
G00 X46.4520 Y2.9573 
G01 Z-0.1778 F254.00 
G01 X46.4520 Y4.0027 F508.00 
G01 X45.7127 Y4.7420 
G01 X44.6673 Y4.7420 
G01 X43.9280 Y4.0027 
G01 X43.9280 Y2.9573 
G01 X44.6673 Y2.2180 
G01 X45.7127 Y2.2180 
G01 X46.4520 Y2.9573 
G00 Z2.5400 
G00 X48.9920 Y2.9573 
G01 Z-0.1778 F254.00 
G01 X48.9920 Y4.0027 F508.00 
G01 X48.2527 Y4.7420 
G01 X47.2073 Y4.7420 
G01 X46.4680 Y4.0027 
G01 X46.4680 Y2.9573 
G01 X47.2073 Y2.2180 
G01 X48.2527 Y2.2180 
G01 X48.9920 Y2.9573 
G00 Z2.5400 
G00 X51.5320 Y2.9573 
G01 Z-0.1778 F254.00 
G01 X51.5320 Y4.0027 F508.00 
G01 X50.7927 Y4.7420 
G01 X49.7473 Y4.7420 
G01 X49.0080 Y4.0027 
G01 X49.0080 Y2.9573 
G01 X49.7473 Y2.2180 
G01 X50.7927 Y2.2180 
G01 X51.5320 Y2.9573 
G00 Z2.5400 
G00 X54.0720 Y2.9573 
G01 Z-0.1778 F254.00 
G01 X54.0720 Y4.0027 F508.00 
G01 X53.3327 Y4.7420 
G01 X52.2873 Y4.7420 
G01 X51.5480 Y4.0027 
G01 X51.5480 Y2.9573 
G01 X52.2873 Y2.2180 
G01 X53.3327 Y2.2180 
G01 X54.0720 Y2.9573 
G00 Z2.5400 
G00 X56.6120 Y2.9573 
G01 Z-0.1778 F254.00 
G01 X56.6120 Y4.0027 F508.00 
G01 X55.8727 Y4.7420 
G01 X54.8273 Y4.7420 
G01 X54.0880 Y4.0027 
G01 X54.0880 Y2.9573 
G01 X54.8273 Y2.2180 
G01 X55.8727 Y2.2180 
G01 X56.6120 Y2.9573 
G00 Z2.5400 
G00 X59.1520 Y2.9573 
G01 Z-0.1778 F254.00 
G01 X59.1520 Y4.0027 F508.00 
G01 X58.4127 Y4.7420 
G01 X57.3673 Y4.7420 
G01 X56.6280 Y4.0027 
G01 X56.6280 Y2.9573 
G01 X57.3673 Y2.2180 
G01 X58.4127 Y2.2180 
G01 X59.1520 Y2.9573 
G00 Z2.5400 
G00 X46.4520 Y5.4973 
G01 Z-0.1778 F254.00 
G01 X46.4520 Y6.5427 F508.00 
G01 X45.7127 Y7.2820 
G01 X44.6673 Y7.2820 
G01 X43.9280 Y6.5427 
G01 X43.9280 Y5.4973 
G01 X44.6673 Y4.7580 
G01 X45.7127 Y4.7580 
G01 X46.4520 Y5.4973 
G00 Z2.5400 
G00 X48.9920 Y5.4973 
G01 Z-0.1778 F254.00 
G01 X48.9920 Y6.5427 F508.00 
G01 X48.2527 Y7.2820 
G01 X47.2073 Y7.2820 
G01 X46.4680 Y6.5427 
G01 X46.4680 Y5.4973 
G01 X47.2073 Y4.7580 
G01 X48.2527 Y4.7580 
G01 X48.9920 Y5.4973 
G00 Z2.5400 
G00 X51.5320 Y5.4973 
G01 Z-0.1778 F254.00 
G01 X51.5320 Y6.5427 F508.00 
G01 X50.7927 Y7.2820 
G01 X49.7473 Y7.2820 
G01 X49.0080 Y6.5427 
G01 X49.0080 Y5.4973 
G01 X49.7473 Y4.7580 
G01 X50.7927 Y4.7580 
G01 X51.5320 Y5.4973 
G00 Z2.5400 
G00 X54.0720 Y5.4973 
G01 Z-0.1778 F254.00 
G01 X54.0720 Y6.5427 F508.00 
G01 X53.3327 Y7.2820 
G01 X52.2873 Y7.2820 
G01 X51.5480 Y6.5427 
G01 X51.5480 Y5.4973 
G01 X52.2873 Y4.7580 
G01 X53.3327 Y4.7580 
G01 X54.0720 Y5.4973 
G00 Z2.5400 
G00 X56.6120 Y5.4973 
G01 Z-0.1778 F254.00 
G01 X56.6120 Y6.5427 F508.00 
G01 X55.8727 Y7.2820 
G01 X54.8273 Y7.2820 
G01 X54.0880 Y6.5427 
G01 X54.0880 Y5.4973 
G01 X54.8273 Y4.7580 
G01 X55.8727 Y4.7580 
G01 X56.6120 Y5.4973 
G00 Z2.5400 
G00 X59.1520 Y5.4973 
G01 Z-0.1778 F254.00 
G01 X59.1520 Y6.5427 F508.00 
G01 X58.4127 Y7.2820 
G01 X57.3673 Y7.2820 
G01 X56.6280 Y6.5427 
G01 X56.6280 Y5.4973 
G01 X57.3673 Y4.7580 
G01 X58.4127 Y4.7580 
G01 X59.1520 Y5.4973 
G00 Z2.5400 
G00 X61.6920 Y2.9573 
G01 Z-0.1778 F254.00 
G01 X61.6920 Y4.0027 F508.00 
G01 X60.9527 Y4.7420 
G01 X59.9073 Y4.7420 
G01 X59.1680 Y4.0027 
G01 X59.1680 Y2.9573 
G01 X59.9073 Y2.2180 
G01 X60.9527 Y2.2180 
G01 X61.6920 Y2.9573 
G00 Z2.5400 
G00 X61.6920 Y5.4973 
G01 Z-0.1778 F254.00 
G01 X61.6920 Y6.5427 F508.00 
G01 X60.9527 Y7.2820 
G01 X59.9073 Y7.2820 
G01 X59.1680 Y6.5427 
G01 X59.1680 Y5.4973 
G01 X59.9073 Y4.7580 
G01 X60.9527 Y4.7580 
G01 X61.6920 Y5.4973 
G00 Z2.5400 
G00 X64.2320 Y2.9573 
G01 Z-0.1778 F254.00 
G01 X64.2320 Y4.0027 F508.00 
G01 X63.4927 Y4.7420 
G01 X62.4473 Y4.7420 
G01 X61.7080 Y4.0027 
G01 X61.7080 Y2.9573 
G01 X62.4473 Y2.2180 
G01 X63.4927 Y2.2180 
G01 X64.2320 Y2.9573 
G00 Z2.5400 
G00 X66.7720 Y2.9573 
G01 Z-0.1778 F254.00 
G01 X66.7720 Y4.0027 F508.00 
G01 X66.0327 Y4.7420 
G01 X64.9873 Y4.7420 
G01 X64.2480 Y4.0027 
G01 X64.2480 Y2.9573 
G01 X64.9873 Y2.2180 
G01 X66.0327 Y2.2180 
G01 X66.7720 Y2.9573 
G00 Z2.5400 
G00 X69.3120 Y2.9573 
G01 Z-0.1778 F254.00 
G01 X69.3120 Y4.0027 F508.00 
G01 X68.5727 Y4.7420 
G01 X67.5273 Y4.7420 
G01 X66.7880 Y4.0027 
G01 X66.7880 Y2.9573 
G01 X67.5273 Y2.2180 
G01 X68.5727 Y2.2180 
G01 X69.3120 Y2.9573 
G00 Z2.5400 
G00 X64.2320 Y5.4973 
G01 Z-0.1778 F254.00 
G01 X64.2320 Y6.5427 F508.00 
G01 X63.4927 Y7.2820 
G01 X62.4473 Y7.2820 
G01 X61.7080 Y6.5427 
G01 X61.7080 Y5.4973 
G01 X62.4473 Y4.7580 
G01 X63.4927 Y4.7580 
G01 X64.2320 Y5.4973 
G00 Z2.5400 
G00 X66.7720 Y5.4973 
G01 Z-0.1778 F254.00 
G01 X66.7720 Y6.5427 F508.00 
G01 X66.0327 Y7.2820 
G01 X64.9873 Y7.2820 
G01 X64.2480 Y6.5427 
G01 X64.2480 Y5.4973 
G01 X64.9873 Y4.7580 
G01 X66.0327 Y4.7580 
G01 X66.7720 Y5.4973 
G00 Z2.5400 
G00 X69.3120 Y5.4973 
G01 Z-0.1778 F254.00 
G01 X69.3120 Y6.5427 F508.00 
G01 X68.5727 Y7.2820 
G01 X67.5273 Y7.2820 
G01 X66.7880 Y6.5427 
G01 X66.7880 Y5.4973 
G01 X67.5273 Y4.7580 
G01 X68.5727 Y4.7580 
G01 X69.3120 Y5.4973 
G00 Z2.5400 
G00 X71.8520 Y2.9573 
G01 Z-0.1778 F254.00 
G01 X71.8520 Y4.0027 F508.00 
G01 X71.1127 Y4.7420 
G01 X70.0673 Y4.7420 
G01 X69.3280 Y4.0027 
G01 X69.3280 Y2.9573 
G01 X70.0673 Y2.2180 
G01 X71.1127 Y2.2180 
G01 X71.8520 Y2.9573 
G00 Z2.5400 
G00 X71.8520 Y5.4973 
G01 Z-0.1778 F254.00 
G01 X71.8520 Y6.5427 F508.00 
G01 X71.1127 Y7.2820 
G01 X70.0673 Y7.2820 
G01 X69.3280 Y6.5427 
G01 X69.3280 Y5.4973 
G01 X70.0673 Y4.7580 
G01 X71.1127 Y4.7580 
G01 X71.8520 Y5.4973 
G00 Z2.5400 
G00 X28.6720 Y28.2073 
G01 Z-0.1778 F254.00 
G01 X28.6720 Y29.2527 F508.00 
G01 X27.9327 Y29.9920 
G01 X26.8873 Y29.9920 
G01 X26.1480 Y29.2527 
G01 X26.1480 Y28.2073 
G01 X26.8873 Y27.4680 
G01 X27.9327 Y27.4680 
G01 X28.6720 Y28.2073 
G00 Z2.5400 
G00 X31.2120 Y28.2073 
G01 Z-0.1778 F254.00 
G01 X31.2120 Y29.2527 F508.00 
G01 X30.4727 Y29.9920 
G01 X29.4273 Y29.9920 
G01 X28.6880 Y29.2527 
G01 X28.6880 Y28.2073 
G01 X29.4273 Y27.4680 
G01 X30.4727 Y27.4680 
G01 X31.2120 Y28.2073 
G00 Z2.5400 
G00 X33.7520 Y28.2073 
G01 Z-0.1778 F254.00 
G01 X33.7520 Y29.2527 F508.00 
G01 X33.0127 Y29.9920 
G01 X31.9673 Y29.9920 
G01 X31.2280 Y29.2527 
G01 X31.2280 Y28.2073 
G01 X31.9673 Y27.4680 
G01 X33.0127 Y27.4680 
G01 X33.7520 Y28.2073 
G00 Z2.5400 
G00 X36.2920 Y28.2073 
G01 Z-0.1778 F254.00 
G01 X36.2920 Y29.2527 F508.00 
G01 X35.5527 Y29.9920 
G01 X34.5073 Y29.9920 
G01 X33.7680 Y29.2527 
G01 X33.7680 Y28.2073 
G01 X34.5073 Y27.4680 
G01 X35.5527 Y27.4680 
G01 X36.2920 Y28.2073 
G00 Z2.5400 
G00 X38.8320 Y28.2073 
G01 Z-0.1778 F254.00 
G01 X38.8320 Y29.2527 F508.00 
G01 X38.0927 Y29.9920 
G01 X37.0473 Y29.9920 
G01 X36.3080 Y29.2527 
G01 X36.3080 Y28.2073 
G01 X37.0473 Y27.4680 
G01 X38.0927 Y27.4680 
G01 X38.8320 Y28.2073 
G00 Z2.5400 
G00 X41.3720 Y28.2073 
G01 Z-0.1778 F254.00 
G01 X41.3720 Y29.2527 F508.00 
G01 X40.6327 Y29.9920 
G01 X39.5873 Y29.9920 
G01 X38.8480 Y29.2527 
G01 X38.8480 Y28.2073 
G01 X39.5873 Y27.4680 
G01 X40.6327 Y27.4680 
G01 X41.3720 Y28.2073 
G00 Z2.5400 
G00 X28.6720 Y30.7473 
G01 Z-0.1778 F254.00 
G01 X28.6720 Y31.7927 F508.00 
G01 X27.9327 Y32.5320 
G01 X26.8873 Y32.5320 
G01 X26.1480 Y31.7927 
G01 X26.1480 Y30.7473 
G01 X26.8873 Y30.0080 
G01 X27.9327 Y30.0080 
G01 X28.6720 Y30.7473 
G00 Z2.5400 
G00 X31.2120 Y30.7473 
G01 Z-0.1778 F254.00 
G01 X31.2120 Y31.7927 F508.00 
G01 X30.4727 Y32.5320 
G01 X29.4273 Y32.5320 
G01 X28.6880 Y31.7927 
G01 X28.6880 Y30.7473 
G01 X29.4273 Y30.0080 
G01 X30.4727 Y30.0080 
G01 X31.2120 Y30.7473 
G00 Z2.5400 
G00 X33.7520 Y30.7473 
G01 Z-0.1778 F254.00 
G01 X33.7520 Y31.7927 F508.00 
G01 X33.0127 Y32.5320 
G01 X31.9673 Y32.5320 
G01 X31.2280 Y31.7927 
G01 X31.2280 Y30.7473 
G01 X31.9673 Y30.0080 
G01 X33.0127 Y30.0080 
G01 X33.7520 Y30.7473 
G00 Z2.5400 
G00 X36.2920 Y30.7473 
G01 Z-0.1778 F254.00 
G01 X36.2920 Y31.7927 F508.00 
G01 X35.5527 Y32.5320 
G01 X34.5073 Y32.5320 
G01 X33.7680 Y31.7927 
G01 X33.7680 Y30.7473 
G01 X34.5073 Y30.0080 
G01 X35.5527 Y30.0080 
G01 X36.2920 Y30.7473 
G00 Z2.5400 
G00 X38.8320 Y30.7473 
G01 Z-0.1778 F254.00 
G01 X38.8320 Y31.7927 F508.00 
G01 X38.0927 Y32.5320 
G01 X37.0473 Y32.5320 
G01 X36.3080 Y31.7927 
G01 X36.3080 Y30.7473 
G01 X37.0473 Y30.0080 
G01 X38.0927 Y30.0080 
G01 X38.8320 Y30.7473 
G00 Z2.5400 
G00 X41.3720 Y30.7473 
G01 Z-0.1778 F254.00 
G01 X41.3720 Y31.7927 F508.00 
G01 X40.6327 Y32.5320 
G01 X39.5873 Y32.5320 
G01 X38.8480 Y31.7927 
G01 X38.8480 Y30.7473 
G01 X39.5873 Y30.0080 
G01 X40.6327 Y30.0080 
G01 X41.3720 Y30.7473 
G00 Z2.5400 
G00 X43.9120 Y28.2073 
G01 Z-0.1778 F254.00 
G01 X43.9120 Y29.2527 F508.00 
G01 X43.1727 Y29.9920 
G01 X42.1273 Y29.9920 
G01 X41.3880 Y29.2527 
G01 X41.3880 Y28.2073 
G01 X42.1273 Y27.4680 
G01 X43.1727 Y27.4680 
G01 X43.9120 Y28.2073 
G00 Z2.5400 
G00 X43.9120 Y30.7473 
G01 Z-0.1778 F254.00 
G01 X43.9120 Y31.7927 F508.00 
G01 X43.1727 Y32.5320 
G01 X42.1273 Y32.5320 
G01 X41.3880 Y31.7927 
G01 X41.3880 Y30.7473 
G01 X42.1273 Y30.0080 
G01 X43.1727 Y30.0080 
G01 X43.9120 Y30.7473 
G00 Z2.5400 
G00 X46.4520 Y28.2073 
G01 Z-0.1778 F254.00 
G01 X46.4520 Y29.2527 F508.00 
G01 X45.7127 Y29.9920 
G01 X44.6673 Y29.9920 
G01 X43.9280 Y29.2527 
G01 X43.9280 Y28.2073 
G01 X44.6673 Y27.4680 
G01 X45.7127 Y27.4680 
G01 X46.4520 Y28.2073 
G00 Z2.5400 
G00 X48.9920 Y28.2073 
G01 Z-0.1778 F254.00 
G01 X48.9920 Y29.2527 F508.00 
G01 X48.2527 Y29.9920 
G01 X47.2073 Y29.9920 
G01 X46.4680 Y29.2527 
G01 X46.4680 Y28.2073 
G01 X47.2073 Y27.4680 
G01 X48.2527 Y27.4680 
G01 X48.9920 Y28.2073 
G00 Z2.5400 
G00 X51.5320 Y28.2073 
G01 Z-0.1778 F254.00 
G01 X51.5320 Y29.2527 F508.00 
G01 X50.7927 Y29.9920 
G01 X49.7473 Y29.9920 
G01 X49.0080 Y29.2527 
G01 X49.0080 Y28.2073 
G01 X49.7473 Y27.4680 
G01 X50.7927 Y27.4680 
G01 X51.5320 Y28.2073 
G00 Z2.5400 
G00 X54.0720 Y28.2073 
G01 Z-0.1778 F254.00 
G01 X54.0720 Y29.2527 F508.00 
G01 X53.3327 Y29.9920 
G01 X52.2873 Y29.9920 
G01 X51.5480 Y29.2527 
G01 X51.5480 Y28.2073 
G01 X52.2873 Y27.4680 
G01 X53.3327 Y27.4680 
G01 X54.0720 Y28.2073 
G00 Z2.5400 
G00 X56.6120 Y28.2073 
G01 Z-0.1778 F254.00 
G01 X56.6120 Y29.2527 F508.00 
G01 X55.8727 Y29.9920 
G01 X54.8273 Y29.9920 
G01 X54.0880 Y29.2527 
G01 X54.0880 Y28.2073 
G01 X54.8273 Y27.4680 
G01 X55.8727 Y27.4680 
G01 X56.6120 Y28.2073 
G00 Z2.5400 
G00 X59.1520 Y28.2073 
G01 Z-0.1778 F254.00 
G01 X59.1520 Y29.2527 F508.00 
G01 X58.4127 Y29.9920 
G01 X57.3673 Y29.9920 
G01 X56.6280 Y29.2527 
G01 X56.6280 Y28.2073 
G01 X57.3673 Y27.4680 
G01 X58.4127 Y27.4680 
G01 X59.1520 Y28.2073 
G00 Z2.5400 
G00 X46.4520 Y30.7473 
G01 Z-0.1778 F254.00 
G01 X46.4520 Y31.7927 F508.00 
G01 X45.7127 Y32.5320 
G01 X44.6673 Y32.5320 
G01 X43.9280 Y31.7927 
G01 X43.9280 Y30.7473 
G01 X44.6673 Y30.0080 
G01 X45.7127 Y30.0080 
G01 X46.4520 Y30.7473 
G00 Z2.5400 
G00 X48.9920 Y30.7473 
G01 Z-0.1778 F254.00 
G01 X48.9920 Y31.7927 F508.00 
G01 X48.2527 Y32.5320 
G01 X47.2073 Y32.5320 
G01 X46.4680 Y31.7927 
G01 X46.4680 Y30.7473 
G01 X47.2073 Y30.0080 
G01 X48.2527 Y30.0080 
G01 X48.9920 Y30.7473 
G00 Z2.5400 
G00 X51.5320 Y30.7473 
G01 Z-0.1778 F254.00 
G01 X51.5320 Y31.7927 F508.00 
G01 X50.7927 Y32.5320 
G01 X49.7473 Y32.5320 
G01 X49.0080 Y31.7927 
G01 X49.0080 Y30.7473 
G01 X49.7473 Y30.0080 
G01 X50.7927 Y30.0080 
G01 X51.5320 Y30.7473 
G00 Z2.5400 
G00 X54.0720 Y30.7473 
G01 Z-0.1778 F254.00 
G01 X54.0720 Y31.7927 F508.00 
G01 X53.3327 Y32.5320 
G01 X52.2873 Y32.5320 
G01 X51.5480 Y31.7927 
G01 X51.5480 Y30.7473 
G01 X52.2873 Y30.0080 
G01 X53.3327 Y30.0080 
G01 X54.0720 Y30.7473 
G00 Z2.5400 
G00 X56.6120 Y30.7473 
G01 Z-0.1778 F254.00 
G01 X56.6120 Y31.7927 F508.00 
G01 X55.8727 Y32.5320 
G01 X54.8273 Y32.5320 
G01 X54.0880 Y31.7927 
G01 X54.0880 Y30.7473 
G01 X54.8273 Y30.0080 
G01 X55.8727 Y30.0080 
G01 X56.6120 Y30.7473 
G00 Z2.5400 
G00 X59.1520 Y30.7473 
G01 Z-0.1778 F254.00 
G01 X59.1520 Y31.7927 F508.00 
G01 X58.4127 Y32.5320 
G01 X57.3673 Y32.5320 
G01 X56.6280 Y31.7927 
G01 X56.6280 Y30.7473 
G01 X57.3673 Y30.0080 
G01 X58.4127 Y30.0080 
G01 X59.1520 Y30.7473 
G00 Z2.5400 
G00 X61.6920 Y28.2073 
G01 Z-0.1778 F254.00 
G01 X61.6920 Y29.2527 F508.00 
G01 X60.9527 Y29.9920 
G01 X59.9073 Y29.9920 
G01 X59.1680 Y29.2527 
G01 X59.1680 Y28.2073 
G01 X59.9073 Y27.4680 
G01 X60.9527 Y27.4680 
G01 X61.6920 Y28.2073 
G00 Z2.5400 
G00 X61.6920 Y30.7473 
G01 Z-0.1778 F254.00 
G01 X61.6920 Y31.7927 F508.00 
G01 X60.9527 Y32.5320 
G01 X59.9073 Y32.5320 
G01 X59.1680 Y31.7927 
G01 X59.1680 Y30.7473 
G01 X59.9073 Y30.0080 
G01 X60.9527 Y30.0080 
G01 X61.6920 Y30.7473 
G00 Z2.5400 
G00 X64.2320 Y28.2073 
G01 Z-0.1778 F254.00 
G01 X64.2320 Y29.2527 F508.00 
G01 X63.4927 Y29.9920 
G01 X62.4473 Y29.9920 
G01 X61.7080 Y29.2527 
G01 X61.7080 Y28.2073 
G01 X62.4473 Y27.4680 
G01 X63.4927 Y27.4680 
G01 X64.2320 Y28.2073 
G00 Z2.5400 
G00 X66.7720 Y28.2073 
G01 Z-0.1778 F254.00 
G01 X66.7720 Y29.2527 F508.00 
G01 X66.0327 Y29.9920 
G01 X64.9873 Y29.9920 
G01 X64.2480 Y29.2527 
G01 X64.2480 Y28.2073 
G01 X64.9873 Y27.4680 
G01 X66.0327 Y27.4680 
G01 X66.7720 Y28.2073 
G00 Z2.5400 
G00 X69.3120 Y28.2073 
G01 Z-0.1778 F254.00 
G01 X69.3120 Y29.2527 F508.00 
G01 X68.5727 Y29.9920 
G01 X67.5273 Y29.9920 
G01 X66.7880 Y29.2527 
G01 X66.7880 Y28.2073 
G01 X67.5273 Y27.4680 
G01 X68.5727 Y27.4680 
G01 X69.3120 Y28.2073 
G00 Z2.5400 
G00 X64.2320 Y30.7473 
G01 Z-0.1778 F254.00 
G01 X64.2320 Y31.7927 F508.00 
G01 X63.4927 Y32.5320 
G01 X62.4473 Y32.5320 
G01 X61.7080 Y31.7927 
G01 X61.7080 Y30.7473 
G01 X62.4473 Y30.0080 
G01 X63.4927 Y30.0080 
G01 X64.2320 Y30.7473 
G00 Z2.5400 
G00 X66.7720 Y30.7473 
G01 Z-0.1778 F254.00 
G01 X66.7720 Y31.7927 F508.00 
G01 X66.0327 Y32.5320 
G01 X64.9873 Y32.5320 
G01 X64.2480 Y31.7927 
G01 X64.2480 Y30.7473 
G01 X64.9873 Y30.0080 
G01 X66.0327 Y30.0080 
G01 X66.7720 Y30.7473 
G00 Z2.5400 
G00 X69.3120 Y30.7473 
G01 Z-0.1778 F254.00 
G01 X69.3120 Y31.7927 F508.00 
G01 X68.5727 Y32.5320 
G01 X67.5273 Y32.5320 
G01 X66.7880 Y31.7927 
G01 X66.7880 Y30.7473 
G01 X67.5273 Y30.0080 
G01 X68.5727 Y30.0080 
G01 X69.3120 Y30.7473 
G00 Z2.5400 
G00 X71.8520 Y28.2073 
G01 Z-0.1778 F254.00 
G01 X71.8520 Y29.2527 F508.00 
G01 X71.1127 Y29.9920 
G01 X70.0673 Y29.9920 
G01 X69.3280 Y29.2527 
G01 X69.3280 Y28.2073 
G01 X70.0673 Y27.4680 
G01 X71.1127 Y27.4680 
G01 X71.8520 Y28.2073 
G00 Z2.5400 
G00 X71.8520 Y30.7473 
G01 Z-0.1778 F254.00 
G01 X71.8520 Y31.7927 F508.00 
G01 X71.1127 Y32.5320 
G01 X70.0673 Y32.5320 
G01 X69.3280 Y31.7927 
G01 X69.3280 Y30.7473 
G01 X70.0673 Y30.0080 
G01 X71.1127 Y30.0080 
G01 X71.8520 Y30.7473 
G00 Z2.5400 
G00 X31.2200 Y4.5604 
G01 Z-0.1778 F254.00 
G01 X31.0304 Y4.7500 F508.00 
G01 X31.2200 Y4.9396 
G01 X31.4096 Y4.7500 
G01 X31.2200 Y4.5604 
G00 Z2.5400 
G00 X36.3000 Y4.5604 
G01 Z-0.1778 F254.00 
G01 X36.1104 Y4.7500 F508.00 
G01 X36.3000 Y4.9396 
G01 X36.4896 Y4.7500 
G01 X36.3000 Y4.5604 
G00 Z2.5400 
G00 X43.9200 Y4.5604 
G01 Z-0.1778 F254.00 
G01 X43.7304 Y4.7500 F508.00 
G01 X43.9200 Y4.9396 
G01 X44.1096 Y4.7500 
G01 X43.9200 Y4.5604 
G00 Z2.5400 
G00 X49.0000 Y4.5604 
G01 Z-0.1778 F254.00 
G01 X48.8104 Y4.7500 F508.00 
G01 X49.0000 Y4.9396 
G01 X49.1896 Y4.7500 
G01 X49.0000 Y4.5604 
G00 Z2.5400 
G00 X54.0800 Y4.5604 
G01 Z-0.1778 F254.00 
G01 X53.8904 Y4.7500 F508.00 
G01 X54.0800 Y4.9396 
G01 X54.2696 Y4.7500 
G01 X54.0800 Y4.5604 
G00 Z2.5400 
G00 X64.2400 Y4.5604 
G01 Z-0.1778 F254.00 
G01 X64.0504 Y4.7500 F508.00 
G01 X64.2400 Y4.9396 
G01 X64.4296 Y4.7500 
G01 X64.2400 Y4.5604 
G00 Z2.5400 
G00 X69.3200 Y4.5604 
G01 Z-0.1778 F254.00 
G01 X69.1304 Y4.7500 F508.00 
G01 X69.3200 Y4.9396 
G01 X69.5096 Y4.7500 
G01 X69.3200 Y4.5604 
G00 Z2.5400 
G00 X66.7800 Y4.5604 
G01 Z-0.1778 F254.00 
G01 X66.5904 Y4.7500 F508.00 
G01 X66.7800 Y4.9396 
G01 X66.9696 Y4.7500 
G01 X66.7800 Y4.5604 
G00 Z2.5400 
G00 X61.7000 Y4.5604 
G01 Z-0.1778 F254.00 
G01 X61.5104 Y4.7500 F508.00 
G01 X61.7000 Y4.9396 
G01 X61.8896 Y4.7500 
G01 X61.7000 Y4.5604 
G00 Z2.5400 
G00 X59.1600 Y4.5604 
G01 Z-0.1778 F254.00 
G01 X58.9704 Y4.7500 F508.00 
G01 X59.1600 Y4.9396 
G01 X59.3496 Y4.7500 
G01 X59.1600 Y4.5604 
G00 Z2.5400 
G00 X56.6200 Y4.5604 
G01 Z-0.1778 F254.00 
G01 X56.4304 Y4.7500 F508.00 
G01 X56.6200 Y4.9396 
G01 X56.8096 Y4.7500 
G01 X56.6200 Y4.5604 
G00 Z2.5400 
G00 X51.5400 Y4.5604 
G01 Z-0.1778 F254.00 
G01 X51.3504 Y4.7500 F508.00 
G01 X51.5400 Y4.9396 
G01 X51.7296 Y4.7500 
G01 X51.5400 Y4.5604 
G00 Z2.5400 
G00 X46.4600 Y4.5604 
G01 Z-0.1778 F254.00 
G01 X46.2704 Y4.7500 F508.00 
G01 X46.4600 Y4.9396 
G01 X46.6496 Y4.7500 
G01 X46.4600 Y4.5604 
G00 Z2.5400 
G00 X41.3800 Y4.5604 
G01 Z-0.1778 F254.00 
G01 X41.1904 Y4.7500 F508.00 
G01 X41.3800 Y4.9396 
G01 X41.5696 Y4.7500 
G01 X41.3800 Y4.5604 
G00 Z2.5400 
G00 X38.8400 Y4.5604 
G01 Z-0.1778 F254.00 
G01 X38.6504 Y4.7500 F508.00 
G01 X38.8400 Y4.9396 
G01 X39.0296 Y4.7500 
G01 X38.8400 Y4.5604 
G00 Z2.5400 
G00 X33.7600 Y4.5604 
G01 Z-0.1778 F254.00 
G01 X33.5704 Y4.7500 F508.00 
G01 X33.7600 Y4.9396 
G01 X33.9496 Y4.7500 
G01 X33.7600 Y4.5604 
G00 Z2.5400 
G00 X28.6800 Y4.5604 
G01 Z-0.1778 F254.00 
G01 X28.4904 Y4.7500 F508.00 
G01 X28.6800 Y4.9396 
G01 X28.8696 Y4.7500 
G01 X28.6800 Y4.5604 
G00 Z2.5400 
G00 X28.6800 Y29.8104 
G01 Z-0.1778 F254.00 
G01 X28.4904 Y30.0000 F508.00 
G01 X28.6800 Y30.1896 
G01 X28.8696 Y30.0000 
G01 X28.6800 Y29.8104 
G00 Z2.5400 
G00 X33.7600 Y29.8104 
G01 Z-0.1778 F254.00 
G01 X33.5704 Y30.0000 F508.00 
G01 X33.7600 Y30.1896 
G01 X33.9496 Y30.0000 
G01 X33.7600 Y29.8104 
G00 Z2.5400 
G00 X38.8400 Y29.8104 
G01 Z-0.1778 F254.00 
G01 X38.6504 Y30.0000 F508.00 
G01 X38.8400 Y30.1896 
G01 X39.0296 Y30.0000 
G01 X38.8400 Y29.8104 
G00 Z2.5400 
G00 X41.3800 Y29.8104 
G01 Z-0.1778 F254.00 
G01 X41.1904 Y30.0000 F508.00 
G01 X41.3800 Y30.1896 
G01 X41.5696 Y30.0000 
G01 X41.3800 Y29.8104 
G00 Z2.5400 
G00 X46.4600 Y29.8104 
G01 Z-0.1778 F254.00 
G01 X46.2704 Y30.0000 F508.00 
G01 X46.4600 Y30.1896 
G01 X46.6496 Y30.0000 
G01 X46.4600 Y29.8104 
G00 Z2.5400 
G00 X51.5400 Y29.8104 
G01 Z-0.1778 F254.00 
G01 X51.3504 Y30.0000 F508.00 
G01 X51.5400 Y30.1896 
G01 X51.7296 Y30.0000 
G01 X51.5400 Y29.8104 
G00 Z2.5400 
G00 X56.6200 Y29.8104 
G01 Z-0.1778 F254.00 
G01 X56.4304 Y30.0000 F508.00 
G01 X56.6200 Y30.1896 
G01 X56.8096 Y30.0000 
G01 X56.6200 Y29.8104 
G00 Z2.5400 
G00 X59.1600 Y29.8104 
G01 Z-0.1778 F254.00 
G01 X58.9704 Y30.0000 F508.00 
G01 X59.1600 Y30.1896 
G01 X59.3496 Y30.0000 
G01 X59.1600 Y29.8104 
G00 Z2.5400 
G00 X61.7000 Y29.8104 
G01 Z-0.1778 F254.00 
G01 X61.5104 Y30.0000 F508.00 
G01 X61.7000 Y30.1896 
G01 X61.8896 Y30.0000 
G01 X61.7000 Y29.8104 
G00 Z2.5400 
G00 X66.7800 Y29.8104 
G01 Z-0.1778 F254.00 
G01 X66.5904 Y30.0000 F508.00 
G01 X66.7800 Y30.1896 
G01 X66.9696 Y30.0000 
G01 X66.7800 Y29.8104 
G00 Z2.5400 
G00 X69.3200 Y29.8104 
G01 Z-0.1778 F254.00 
G01 X69.1304 Y30.0000 F508.00 
G01 X69.3200 Y30.1896 
G01 X69.5096 Y30.0000 
G01 X69.3200 Y29.8104 
G00 Z2.5400 
G00 X64.2400 Y29.8104 
G01 Z-0.1778 F254.00 
G01 X64.0504 Y30.0000 F508.00 
G01 X64.2400 Y30.1896 
G01 X64.4296 Y30.0000 
G01 X64.2400 Y29.8104 
G00 Z2.5400 
G00 X54.0800 Y29.8104 
G01 Z-0.1778 F254.00 
G01 X53.8904 Y30.0000 F508.00 
G01 X54.0800 Y30.1896 
G01 X54.2696 Y30.0000 
G01 X54.0800 Y29.8104 
G00 Z2.5400 
G00 X49.0000 Y29.8104 
G01 Z-0.1778 F254.00 
G01 X48.8104 Y30.0000 F508.00 
G01 X49.0000 Y30.1896 
G01 X49.1896 Y30.0000 
G01 X49.0000 Y29.8104 
G00 Z2.5400 
G00 X43.9200 Y29.8104 
G01 Z-0.1778 F254.00 
G01 X43.7304 Y30.0000 F508.00 
G01 X43.9200 Y30.1896 
G01 X44.1096 Y30.0000 
G01 X43.9200 Y29.8104 
G00 Z2.5400 
G00 X36.3000 Y29.8104 
G01 Z-0.1778 F254.00 
G01 X36.1104 Y30.0000 F508.00 
G01 X36.3000 Y30.1896 
G01 X36.4896 Y30.0000 
G01 X36.3000 Y29.8104 
G00 Z2.5400 
G00 X31.2200 Y29.8104 
G01 Z-0.1778 F254.00 
G01 X31.0304 Y30.0000 F508.00 
G01 X31.2200 Y30.1896 
G01 X31.4096 Y30.0000 
G01 X31.2200 Y29.8104 
G00 Z2.5400 
G00 X25.7480 Y29.4184 
G01 Z-0.1778 F254.00 
G01 X25.7480 Y28.0416 F508.00 
G01 X26.7216 Y27.0680 
G01 X28.0984 Y27.0680 
G01 X28.6800 Y27.6496 
G01 X29.2616 Y27.0680 
G01 X30.6384 Y27.0680 
G01 X31.2200 Y27.6496 
G01 X31.8016 Y27.0680 
G01 X33.1784 Y27.0680 
G01 X33.7600 Y27.6496 
G01 X34.3416 Y27.0680 
G01 X35.7184 Y27.0680 
G01 X36.3000 Y27.6496 
G01 X36.8816 Y27.0680 
G01 X38.2584 Y27.0680 
G01 X38.8400 Y27.6496 
G01 X39.4216 Y27.0680 
G01 X40.7984 Y27.0680 
G01 X41.3800 Y27.6496 
G01 X41.9616 Y27.0680 
G01 X43.3384 Y27.0680 
G01 X43.9200 Y27.6496 
G01 X44.5016 Y27.0680 
G01 X45.8784 Y27.0680 
G01 X46.4600 Y27.6496 
G01 X47.0416 Y27.0680 
G01 X48.4184 Y27.0680 
G01 X49.0000 Y27.6496 
G01 X49.5816 Y27.0680 
G01 X50.9584 Y27.0680 
G01 X51.5400 Y27.6496 
G01 X52.1216 Y27.0680 
G01 X53.4984 Y27.0680 
G01 X54.0800 Y27.6496 
G01 X54.6616 Y27.0680 
G01 X56.0384 Y27.0680 
G01 X56.6200 Y27.6496 
G01 X57.2016 Y27.0680 
G01 X58.5784 Y27.0680 
G01 X59.1600 Y27.6496 
G01 X59.7416 Y27.0680 
G01 X61.1184 Y27.0680 
G01 X61.7000 Y27.6496 
G01 X62.2816 Y27.0680 
G01 X63.6584 Y27.0680 
G01 X64.2400 Y27.6496 
G01 X64.8216 Y27.0680 
G01 X66.1984 Y27.0680 
G01 X66.7800 Y27.6496 
G01 X67.3616 Y27.0680 
G01 X68.7384 Y27.0680 
G01 X69.3200 Y27.6496 
G01 X69.9016 Y27.0680 
G01 X71.2784 Y27.0680 
G01 X72.2520 Y28.0416 
G01 X72.2520 Y29.4184 
G01 X71.6704 Y30.0000 
G01 X72.2520 Y30.5816 
G01 X72.2520 Y31.9584 
G01 X71.2784 Y32.9320 
G01 X69.9016 Y32.9320 
G01 X69.3200 Y32.3504 
G01 X68.7384 Y32.9320 
G01 X67.3616 Y32.9320 
G01 X66.7800 Y32.3504 
G01 X66.1984 Y32.9320 
G01 X64.8216 Y32.9320 
G01 X64.2400 Y32.3504 
G01 X63.6584 Y32.9320 
G01 X62.2816 Y32.9320 
G01 X61.7000 Y32.3504 
G01 X61.1184 Y32.9320 
G01 X59.7416 Y32.9320 
G01 X59.1600 Y32.3504 
G01 X58.5784 Y32.9320 
G01 X57.2016 Y32.9320 
G01 X56.6200 Y32.3504 
G01 X56.0384 Y32.9320 
G01 X54.6616 Y32.9320 
G01 X54.0800 Y32.3504 
G01 X53.4984 Y32.9320 
G01 X52.1216 Y32.9320 
G01 X51.5400 Y32.3504 
G01 X50.9584 Y32.9320 
G01 X49.5816 Y32.9320 
G01 X49.0000 Y32.3504 
G01 X48.4184 Y32.9320 
G01 X47.0416 Y32.9320 
G01 X46.4600 Y32.3504 
G01 X45.8784 Y32.9320 
G01 X44.5016 Y32.9320 
G01 X43.9200 Y32.3504 
G01 X43.3384 Y32.9320 
G01 X41.9616 Y32.9320 
G01 X41.3800 Y32.3504 
G01 X40.7984 Y32.9320 
G01 X39.4216 Y32.9320 
G01 X38.8400 Y32.3504 
G01 X38.2584 Y32.9320 
G01 X36.8816 Y32.9320 
G01 X36.3000 Y32.3504 
G01 X35.7184 Y32.9320 
G01 X34.3416 Y32.9320 
G01 X33.7600 Y32.3504 
G01 X33.1784 Y32.9320 
G01 X31.8016 Y32.9320 
G01 X31.2200 Y32.3504 
G01 X30.6384 Y32.9320 
G01 X29.2616 Y32.9320 
G01 X28.6800 Y32.3504 
G01 X28.0984 Y32.9320 
G01 X26.7216 Y32.9320 
G01 X25.7480 Y31.9584 
G01 X25.7480 Y30.5816 
G01 X26.3296 Y30.0000 
G01 X25.7480 Y29.4184 
G00 Z2.5400 
G00 X25.7480 Y4.1684 
G01 Z-0.1778 F254.00 
G01 X25.7480 Y2.7916 F508.00 
G01 X26.7216 Y1.8180 
G01 X28.0984 Y1.8180 
G01 X28.6800 Y2.3996 
G01 X29.2616 Y1.8180 
G01 X30.6384 Y1.8180 
G01 X31.2200 Y2.3996 
G01 X31.8016 Y1.8180 
G01 X33.1784 Y1.8180 
G01 X33.7600 Y2.3996 
G01 X34.3416 Y1.8180 
G01 X35.7184 Y1.8180 
G01 X36.3000 Y2.3996 
G01 X36.8816 Y1.8180 
G01 X38.2584 Y1.8180 
G01 X38.8400 Y2.3996 
G01 X39.4216 Y1.8180 
G01 X40.7984 Y1.8180 
G01 X41.3800 Y2.3996 
G01 X41.9616 Y1.8180 
G01 X43.3384 Y1.8180 
G01 X43.9200 Y2.3996 
G01 X44.5016 Y1.8180 
G01 X45.8784 Y1.8180 
G01 X46.4600 Y2.3996 
G01 X47.0416 Y1.8180 
G01 X48.4184 Y1.8180 
G01 X49.0000 Y2.3996 
G01 X49.5816 Y1.8180 
G01 X50.9584 Y1.8180 
G01 X51.5400 Y2.3996 
G01 X52.1216 Y1.8180 
G01 X53.4984 Y1.8180 
G01 X54.0800 Y2.3996 
G01 X54.6616 Y1.8180 
G01 X56.0384 Y1.8180 
G01 X56.6200 Y2.3996 
G01 X57.2016 Y1.8180 
G01 X58.5784 Y1.8180 
G01 X59.1600 Y2.3996 
G01 X59.7416 Y1.8180 
G01 X61.1184 Y1.8180 
G01 X61.7000 Y2.3996 
G01 X62.2816 Y1.8180 
G01 X63.6584 Y1.8180 
G01 X64.2400 Y2.3996 
G01 X64.8216 Y1.8180 
G01 X66.1984 Y1.8180 
G01 X66.7800 Y2.3996 
G01 X67.3616 Y1.8180 
G01 X68.7384 Y1.8180 
G01 X69.3200 Y2.3996 
G01 X69.9016 Y1.8180 
G01 X71.2784 Y1.8180 
G01 X72.2520 Y2.7916 
G01 X72.2520 Y4.1684 
G01 X71.6704 Y4.7500 
G01 X72.2520 Y5.3316 
G01 X72.2520 Y6.7084 
G01 X71.2784 Y7.6820 
G01 X69.9016 Y7.6820 
G01 X69.3200 Y7.1004 
G01 X68.7384 Y7.6820 
G01 X67.3616 Y7.6820 
G01 X66.7800 Y7.1004 
G01 X66.1984 Y7.6820 
G01 X64.8216 Y7.6820 
G01 X64.2400 Y7.1004 
G01 X63.6584 Y7.6820 
G01 X62.2816 Y7.6820 
G01 X61.7000 Y7.1004 
G01 X61.1184 Y7.6820 
G01 X59.7416 Y7.6820 
G01 X59.1600 Y7.1004 
G01 X58.5784 Y7.6820 
G01 X57.2016 Y7.6820 
G01 X56.6200 Y7.1004 
G01 X56.0384 Y7.6820 
G01 X54.6616 Y7.6820 
G01 X54.0800 Y7.1004 
G01 X53.4984 Y7.6820 
G01 X52.1216 Y7.6820 
G01 X51.5400 Y7.1004 
G01 X50.9584 Y7.6820 
G01 X49.5816 Y7.6820 
G01 X49.0000 Y7.1004 
G01 X48.4184 Y7.6820 
G01 X47.0416 Y7.6820 
G01 X46.4600 Y7.1004 
G01 X45.8784 Y7.6820 
G01 X44.5016 Y7.6820 
G01 X43.9200 Y7.1004 
G01 X43.3384 Y7.6820 
G01 X41.9616 Y7.6820 
G01 X41.3800 Y7.1004 
G01 X40.7984 Y7.6820 
G01 X39.4216 Y7.6820 
G01 X38.8400 Y7.1004 
G01 X38.2584 Y7.6820 
G01 X36.8816 Y7.6820 
G01 X36.3000 Y7.1004 
G01 X35.7184 Y7.6820 
G01 X34.3416 Y7.6820 
G01 X33.7600 Y7.1004 
G01 X33.1784 Y7.6820 
G01 X31.8016 Y7.6820 
G01 X31.2200 Y7.1004 
G01 X30.6384 Y7.6820 
G01 X29.2616 Y7.6820 
G01 X28.6800 Y7.1004 
G01 X28.0984 Y7.6820 
G01 X26.7216 Y7.6820 
G01 X25.7480 Y6.7084 
G01 X25.7480 Y5.3316 
G01 X26.3296 Y4.7500 
G01 X25.7480 Y4.1684 
G00 Z2.5400 
G00 X25.3480 Y29.5841 
G01 Z-0.1778 F254.00 
G01 X25.3480 Y27.8759 F508.00 
G01 X26.5559 Y26.6680 
G01 X28.2641 Y26.6680 
G01 X28.6800 Y27.0839 
G01 X29.0959 Y26.6680 
G01 X30.8041 Y26.6680 
G01 X31.2200 Y27.0839 
G01 X31.6359 Y26.6680 
G01 X33.3441 Y26.6680 
G01 X33.7600 Y27.0839 
G01 X34.1759 Y26.6680 
G01 X35.8841 Y26.6680 
G01 X36.3000 Y27.0839 
G01 X36.7159 Y26.6680 
G01 X38.4241 Y26.6680 
G01 X38.8400 Y27.0839 
G01 X39.2559 Y26.6680 
G01 X40.9641 Y26.6680 
G01 X41.3800 Y27.0839 
G01 X41.7959 Y26.6680 
G01 X43.5041 Y26.6680 
G01 X43.9200 Y27.0839 
G01 X44.3359 Y26.6680 
G01 X46.0441 Y26.6680 
G01 X46.4600 Y27.0839 
G01 X46.8759 Y26.6680 
G01 X48.5841 Y26.6680 
G01 X49.0000 Y27.0839 
G01 X49.4159 Y26.6680 
G01 X51.1241 Y26.6680 
G01 X51.5400 Y27.0839 
G01 X51.9559 Y26.6680 
G01 X53.6641 Y26.6680 
G01 X54.0800 Y27.0839 
G01 X54.4959 Y26.6680 
G01 X56.2041 Y26.6680 
G01 X56.6200 Y27.0839 
G01 X57.0359 Y26.6680 
G01 X58.7441 Y26.6680 
G01 X59.1600 Y27.0839 
G01 X59.5759 Y26.6680 
G01 X61.2841 Y26.6680 
G01 X61.7000 Y27.0839 
G01 X62.1159 Y26.6680 
G01 X63.8241 Y26.6680 
G01 X64.2400 Y27.0839 
G01 X64.6559 Y26.6680 
G01 X66.3641 Y26.6680 
G01 X66.7800 Y27.0839 
G01 X67.1959 Y26.6680 
G01 X68.9041 Y26.6680 
G01 X69.3200 Y27.0839 
G01 X69.7359 Y26.6680 
G01 X71.4441 Y26.6680 
G01 X72.6520 Y27.8759 
G01 X72.6520 Y29.5841 
G01 X72.2361 Y30.0000 
G01 X72.6520 Y30.4159 
G01 X72.6520 Y32.1241 
G01 X71.4441 Y33.3320 
G01 X69.7359 Y33.3320 
G01 X69.3200 Y32.9161 
G01 X68.9041 Y33.3320 
G01 X67.1959 Y33.3320 
G01 X66.7800 Y32.9161 
G01 X66.3641 Y33.3320 
G01 X64.6559 Y33.3320 
G01 X64.2400 Y32.9161 
G01 X63.8241 Y33.3320 
G01 X62.1159 Y33.3320 
G01 X61.7000 Y32.9161 
G01 X61.2841 Y33.3320 
G01 X59.5759 Y33.3320 
G01 X59.1600 Y32.9161 
G01 X58.7441 Y33.3320 
G01 X57.0359 Y33.3320 
G01 X56.6200 Y32.9161 
G01 X56.2041 Y33.3320 
G01 X54.4959 Y33.3320 
G01 X54.0800 Y32.9161 
G01 X53.6641 Y33.3320 
G01 X51.9559 Y33.3320 
G01 X51.5400 Y32.9161 
G01 X51.1241 Y33.3320 
G01 X49.4159 Y33.3320 
G01 X49.0000 Y32.9161 
G01 X48.5841 Y33.3320 
G01 X46.8759 Y33.3320 
G01 X46.4600 Y32.9161 
G01 X46.0441 Y33.3320 
G01 X44.3359 Y33.3320 
G01 X43.9200 Y32.9161 
G01 X43.5041 Y33.3320 
G01 X41.7959 Y33.3320 
G01 X41.3800 Y32.9161 
G01 X40.9641 Y33.3320 
G01 X39.2559 Y33.3320 
G01 X38.8400 Y32.9161 
G01 X38.4241 Y33.3320 
G01 X36.7159 Y33.3320 
G01 X36.3000 Y32.9161 
G01 X35.8841 Y33.3320 
G01 X34.1759 Y33.3320 
G01 X33.7600 Y32.9161 
G01 X33.3441 Y33.3320 
G01 X31.6359 Y33.3320 
G01 X31.2200 Y32.9161 
G01 X30.8041 Y33.3320 
G01 X29.0959 Y33.3320 
G01 X28.6800 Y32.9161 
G01 X28.2641 Y33.3320 
G01 X26.5559 Y33.3320 
G01 X25.3480 Y32.1241 
G01 X25.3480 Y30.4159 
G01 X25.7639 Y30.0000 
G01 X25.3480 Y29.5841 
G00 Z2.5400 
G00 X25.3480 Y4.3341 
G01 Z-0.1778 F254.00 
G01 X25.3480 Y2.6259 F508.00 
G01 X26.5559 Y1.4180 
G01 X28.2641 Y1.4180 
G01 X28.6800 Y1.8339 
G01 X29.0959 Y1.4180 
G01 X30.8041 Y1.4180 
G01 X31.2200 Y1.8339 
G01 X31.6359 Y1.4180 
G01 X33.3441 Y1.4180 
G01 X33.7600 Y1.8339 
G01 X34.1759 Y1.4180 
G01 X35.8841 Y1.4180 
G01 X36.3000 Y1.8339 
G01 X36.7159 Y1.4180 
G01 X38.4241 Y1.4180 
G01 X38.8400 Y1.8339 
G01 X39.2559 Y1.4180 
G01 X40.9641 Y1.4180 
G01 X41.3800 Y1.8339 
G01 X41.7959 Y1.4180 
G01 X43.5041 Y1.4180 
G01 X43.9200 Y1.8339 
G01 X44.3359 Y1.4180 
G01 X46.0441 Y1.4180 
G01 X46.4600 Y1.8339 
G01 X46.8759 Y1.4180 
G01 X48.5841 Y1.4180 
G01 X49.0000 Y1.8339 
G01 X49.4159 Y1.4180 
G01 X51.1241 Y1.4180 
G01 X51.5400 Y1.8339 
G01 X51.9559 Y1.4180 
G01 X53.6641 Y1.4180 
G01 X54.0800 Y1.8339 
G01 X54.4959 Y1.4180 
G01 X56.2041 Y1.4180 
G01 X56.6200 Y1.8339 
G01 X57.0359 Y1.4180 
G01 X58.7441 Y1.4180 
G01 X59.1600 Y1.8339 
G01 X59.5759 Y1.4180 
G01 X61.2841 Y1.4180 
G01 X61.7000 Y1.8339 
G01 X62.1159 Y1.4180 
G01 X63.8241 Y1.4180 
G01 X64.2400 Y1.8339 
G01 X64.6559 Y1.4180 
G01 X66.3641 Y1.4180 
G01 X66.7800 Y1.8339 
G01 X67.1959 Y1.4180 
G01 X68.9041 Y1.4180 
G01 X69.3200 Y1.8339 
G01 X69.7359 Y1.4180 
G01 X71.4441 Y1.4180 
G01 X72.6520 Y2.6259 
G01 X72.6520 Y4.3341 
G01 X72.2361 Y4.7500 
G01 X72.6520 Y5.1659 
G01 X72.6520 Y6.8741 
G01 X71.4441 Y8.0820 
G01 X69.7359 Y8.0820 
G01 X69.3200 Y7.6661 
G01 X68.9041 Y8.0820 
G01 X67.1959 Y8.0820 
G01 X66.7800 Y7.6661 
G01 X66.3641 Y8.0820 
G01 X64.6559 Y8.0820 
G01 X64.2400 Y7.6661 
G01 X63.8241 Y8.0820 
G01 X62.1159 Y8.0820 
G01 X61.7000 Y7.6661 
G01 X61.2841 Y8.0820 
G01 X59.5759 Y8.0820 
G01 X59.1600 Y7.6661 
G01 X58.7441 Y8.0820 
G01 X57.0359 Y8.0820 
G01 X56.6200 Y7.6661 
G01 X56.2041 Y8.0820 
G01 X54.4959 Y8.0820 
G01 X54.0800 Y7.6661 
G01 X53.6641 Y8.0820 
G01 X51.9559 Y8.0820 
G01 X51.5400 Y7.6661 
G01 X51.1241 Y8.0820 
G01 X49.4159 Y8.0820 
G01 X49.0000 Y7.6661 
G01 X48.5841 Y8.0820 
G01 X46.8759 Y8.0820 
G01 X46.4600 Y7.6661 
G01 X46.0441 Y8.0820 
G01 X44.3359 Y8.0820 
G01 X43.9200 Y7.6661 
G01 X43.5041 Y8.0820 
G01 X41.7959 Y8.0820 
G01 X41.3800 Y7.6661 
G01 X40.9641 Y8.0820 
G01 X39.2559 Y8.0820 
G01 X38.8400 Y7.6661 
G01 X38.4241 Y8.0820 
G01 X36.7159 Y8.0820 
G01 X36.3000 Y7.6661 
G01 X35.8841 Y8.0820 
G01 X34.1759 Y8.0820 
G01 X33.7600 Y7.6661 
G01 X33.3441 Y8.0820 
G01 X31.6359 Y8.0820 
G01 X31.2200 Y7.6661 
G01 X30.8041 Y8.0820 
G01 X29.0959 Y8.0820 
G01 X28.6800 Y7.6661 
G01 X28.2641 Y8.0820 
G01 X26.5559 Y8.0820 
G01 X25.3480 Y6.8741 
G01 X25.3480 Y5.1659 
G01 X25.7639 Y4.7500 
G01 X25.3480 Y4.3341 
G00 Z2.5400 
G00 X24.9480 Y29.7498 
G01 Z-0.1778 F254.00 
G01 X24.9480 Y27.7102 F508.00 
G01 X26.3902 Y26.2680 
G01 X28.4298 Y26.2680 
G01 X28.6800 Y26.5182 
G01 X28.9302 Y26.2680 
G01 X30.9698 Y26.2680 
G01 X31.2200 Y26.5182 
G01 X31.4702 Y26.2680 
G01 X33.5098 Y26.2680 
G01 X33.7600 Y26.5182 
G01 X34.0102 Y26.2680 
G01 X36.0498 Y26.2680 
G01 X36.3000 Y26.5182 
G01 X36.5502 Y26.2680 
G01 X38.5898 Y26.2680 
G01 X38.8400 Y26.5182 
G01 X39.0902 Y26.2680 
G01 X41.1298 Y26.2680 
G01 X41.3800 Y26.5182 
G01 X41.6302 Y26.2680 
G01 X43.6698 Y26.2680 
G01 X43.9200 Y26.5182 
G01 X44.1702 Y26.2680 
G01 X46.2098 Y26.2680 
G01 X46.4600 Y26.5182 
G01 X46.7102 Y26.2680 
G01 X48.7498 Y26.2680 
G01 X49.0000 Y26.5182 
G01 X49.2502 Y26.2680 
G01 X51.2898 Y26.2680 
G01 X51.5400 Y26.5182 
G01 X51.7902 Y26.2680 
G01 X53.8298 Y26.2680 
G01 X54.0800 Y26.5182 
G01 X54.3302 Y26.2680 
G01 X56.3698 Y26.2680 
G01 X56.6200 Y26.5182 
G01 X56.8702 Y26.2680 
G01 X58.9098 Y26.2680 
G01 X59.1600 Y26.5182 
G01 X59.4102 Y26.2680 
G01 X61.4498 Y26.2680 
G01 X61.7000 Y26.5182 
G01 X61.9502 Y26.2680 
G01 X63.9898 Y26.2680 
G01 X64.2400 Y26.5182 
G01 X64.4902 Y26.2680 
G01 X66.5298 Y26.2680 
G01 X66.7800 Y26.5182 
G01 X67.0302 Y26.2680 
G01 X69.0698 Y26.2680 
G01 X69.3200 Y26.5182 
G01 X69.5702 Y26.2680 
G01 X71.6098 Y26.2680 
G01 X73.0520 Y27.7102 
G01 X73.0520 Y29.7498 
G01 X72.8018 Y30.0000 
G01 X73.0520 Y30.2502 
G01 X73.0520 Y32.2898 
G01 X71.6098 Y33.7320 
G01 X69.5702 Y33.7320 
G01 X69.3200 Y33.4818 
G01 X69.0698 Y33.7320 
G01 X67.0302 Y33.7320 
G01 X66.7800 Y33.4818 
G01 X66.5298 Y33.7320 
G01 X64.4902 Y33.7320 
G01 X64.2400 Y33.4818 
G01 X63.9898 Y33.7320 
G01 X61.9502 Y33.7320 
G01 X61.7000 Y33.4818 
G01 X61.4498 Y33.7320 
G01 X59.4102 Y33.7320 
G01 X59.1600 Y33.4818 
G01 X58.9098 Y33.7320 
G01 X56.8702 Y33.7320 
G01 X56.6200 Y33.4818 
G01 X56.3698 Y33.7320 
G01 X54.3302 Y33.7320 
G01 X54.0800 Y33.4818 
G01 X53.8298 Y33.7320 
G01 X51.7902 Y33.7320 
G01 X51.5400 Y33.4818 
G01 X51.2898 Y33.7320 
G01 X49.2502 Y33.7320 
G01 X49.0000 Y33.4818 
G01 X48.7498 Y33.7320 
G01 X46.7102 Y33.7320 
G01 X46.4600 Y33.4818 
G01 X46.2098 Y33.7320 
G01 X44.1702 Y33.7320 
G01 X43.9200 Y33.4818 
G01 X43.6698 Y33.7320 
G01 X41.6302 Y33.7320 
G01 X41.3800 Y33.4818 
G01 X41.1298 Y33.7320 
G01 X39.0902 Y33.7320 
G01 X38.8400 Y33.4818 
G01 X38.5898 Y33.7320 
G01 X36.5502 Y33.7320 
G01 X36.3000 Y33.4818 
G01 X36.0498 Y33.7320 
G01 X34.0102 Y33.7320 
G01 X33.7600 Y33.4818 
G01 X33.5098 Y33.7320 
G01 X31.4702 Y33.7320 
G01 X31.2200 Y33.4818 
G01 X30.9698 Y33.7320 
G01 X28.9302 Y33.7320 
G01 X28.6800 Y33.4818 
G01 X28.4298 Y33.7320 
G01 X26.3902 Y33.7320 
G01 X24.9480 Y32.2898 
G01 X24.9480 Y30.2502 
G01 X25.1982 Y30.0000 
G01 X24.9480 Y29.7498 
G00 Z2.5400 
G00 X24.9480 Y4.4998 
G01 Z-0.1778 F254.00 
G01 X24.9480 Y2.4602 F508.00 
G01 X26.3902 Y1.0180 
G01 X28.4298 Y1.0180 
G01 X28.6800 Y1.2682 
G01 X28.9302 Y1.0180 
G01 X30.9698 Y1.0180 
G01 X31.2200 Y1.2682 
G01 X31.4702 Y1.0180 
G01 X33.5098 Y1.0180 
G01 X33.7600 Y1.2682 
G01 X34.0102 Y1.0180 
G01 X36.0498 Y1.0180 
G01 X36.3000 Y1.2682 
G01 X36.5502 Y1.0180 
G01 X38.5898 Y1.0180 
G01 X38.8400 Y1.2682 
G01 X39.0902 Y1.0180 
G01 X41.1298 Y1.0180 
G01 X41.3800 Y1.2682 
G01 X41.6302 Y1.0180 
G01 X43.6698 Y1.0180 
G01 X43.9200 Y1.2682 
G01 X44.1702 Y1.0180 
G01 X46.2098 Y1.0180 
G01 X46.4600 Y1.2682 
G01 X46.7102 Y1.0180 
G01 X48.7498 Y1.0180 
G01 X49.0000 Y1.2682 
G01 X49.2502 Y1.0180 
G01 X51.2898 Y1.0180 
G01 X51.5400 Y1.2682 
G01 X51.7902 Y1.0180 
G01 X53.8298 Y1.0180 
G01 X54.0800 Y1.2682 
G01 X54.3302 Y1.0180 
G01 X56.3698 Y1.0180 
G01 X56.6200 Y1.2682 
G01 X56.8702 Y1.0180 
G01 X58.9098 Y1.0180 
G01 X59.1600 Y1.2682 
G01 X59.4102 Y1.0180 
G01 X61.4498 Y1.0180 
G01 X61.7000 Y1.2682 
G01 X61.9502 Y1.0180 
G01 X63.9898 Y1.0180 
G01 X64.2400 Y1.2682 
G01 X64.4902 Y1.0180 
G01 X66.5298 Y1.0180 
G01 X66.7800 Y1.2682 
G01 X67.0302 Y1.0180 
G01 X69.0698 Y1.0180 
G01 X69.3200 Y1.2682 
G01 X69.5702 Y1.0180 
G01 X71.6098 Y1.0180 
G01 X73.0520 Y2.4602 
G01 X73.0520 Y4.4998 
G01 X72.8018 Y4.7500 
G01 X73.0520 Y5.0002 
G01 X73.0520 Y7.0398 
G01 X71.6098 Y8.4820 
G01 X69.5702 Y8.4820 
G01 X69.3200 Y8.2318 
G01 X69.0698 Y8.4820 
G01 X67.0302 Y8.4820 
G01 X66.7800 Y8.2318 
G01 X66.5298 Y8.4820 
G01 X64.4902 Y8.4820 
G01 X64.2400 Y8.2318 
G01 X63.9898 Y8.4820 
G01 X61.9502 Y8.4820 
G01 X61.7000 Y8.2318 
G01 X61.4498 Y8.4820 
G01 X59.4102 Y8.4820 
G01 X59.1600 Y8.2318 
G01 X58.9098 Y8.4820 
G01 X56.8702 Y8.4820 
G01 X56.6200 Y8.2318 
G01 X56.3698 Y8.4820 
G01 X54.3302 Y8.4820 
G01 X54.0800 Y8.2318 
G01 X53.8298 Y8.4820 
G01 X51.7902 Y8.4820 
G01 X51.5400 Y8.2318 
G01 X51.2898 Y8.4820 
G01 X49.2502 Y8.4820 
G01 X49.0000 Y8.2318 
G01 X48.7498 Y8.4820 
G01 X46.7102 Y8.4820 
G01 X46.4600 Y8.2318 
G01 X46.2098 Y8.4820 
G01 X44.1702 Y8.4820 
G01 X43.9200 Y8.2318 
G01 X43.6698 Y8.4820 
G01 X41.6302 Y8.4820 
G01 X41.3800 Y8.2318 
G01 X41.1298 Y8.4820 
G01 X39.0902 Y8.4820 
G01 X38.8400 Y8.2318 
G01 X38.5898 Y8.4820 
G01 X36.5502 Y8.4820 
G01 X36.3000 Y8.2318 
G01 X36.0498 Y8.4820 
G01 X34.0102 Y8.4820 
G01 X33.7600 Y8.2318 
G01 X33.5098 Y8.4820 
G01 X31.4702 Y8.4820 
G01 X31.2200 Y8.2318 
G01 X30.9698 Y8.4820 
G01 X28.9302 Y8.4820 
G01 X28.6800 Y8.2318 
G01 X28.4298 Y8.4820 
G01 X26.3902 Y8.4820 
G01 X24.9480 Y7.0398 
G01 X24.9480 Y5.0002 
G01 X25.1982 Y4.7500 
G01 X24.9480 Y4.4998 
G00 Z2.5400 
G00 X24.5480 Y29.9155 
G01 Z-0.1778 F254.00 
G01 X24.5480 Y27.5445 F508.00 
G01 X26.2245 Y25.8680 
G01 X28.5955 Y25.8680 
G01 X28.6800 Y25.9525 
G01 X28.7645 Y25.8680 
G01 X31.1355 Y25.8680 
G01 X31.2200 Y25.9525 
G01 X31.3045 Y25.8680 
G01 X33.6755 Y25.8680 
G01 X33.7600 Y25.9525 
G01 X33.8445 Y25.8680 
G01 X36.2155 Y25.8680 
G01 X36.3000 Y25.9525 
G01 X36.3845 Y25.8680 
G01 X38.7555 Y25.8680 
G01 X38.8400 Y25.9525 
G01 X38.9245 Y25.8680 
G01 X41.2955 Y25.8680 
G01 X41.3800 Y25.9525 
G01 X41.4645 Y25.8680 
G01 X43.8355 Y25.8680 
G01 X43.9200 Y25.9525 
G01 X44.0045 Y25.8680 
G01 X46.3755 Y25.8680 
G01 X46.4600 Y25.9525 
G01 X46.5445 Y25.8680 
G01 X48.9155 Y25.8680 
G01 X49.0000 Y25.9525 
G01 X49.0845 Y25.8680 
G01 X51.4555 Y25.8680 
G01 X51.5400 Y25.9525 
G01 X51.6245 Y25.8680 
G01 X53.9955 Y25.8680 
G01 X54.0800 Y25.9525 
G01 X54.1645 Y25.8680 
G01 X56.5355 Y25.8680 
G01 X56.6200 Y25.9525 
G01 X56.7045 Y25.8680 
G01 X59.0755 Y25.8680 
G01 X59.1600 Y25.9525 
G01 X59.2445 Y25.8680 
G01 X61.6155 Y25.8680 
G01 X61.7000 Y25.9525 
G01 X61.7845 Y25.8680 
G01 X64.1555 Y25.8680 
G01 X64.2400 Y25.9525 
G01 X64.3245 Y25.8680 
G01 X66.6955 Y25.8680 
G01 X66.7800 Y25.9525 
G01 X66.8645 Y25.8680 
G01 X69.2355 Y25.8680 
G01 X69.3200 Y25.9525 
G01 X69.4045 Y25.8680 
G01 X71.7755 Y25.8680 
G01 X73.4520 Y27.5445 
G01 X73.4520 Y29.9155 
G01 X73.3675 Y30.0000 
G01 X73.4520 Y30.0845 
G01 X73.4520 Y32.4555 
G01 X71.7755 Y34.1320 
G01 X69.4045 Y34.1320 
G01 X69.3200 Y34.0475 
G01 X69.2355 Y34.1320 
G01 X66.8645 Y34.1320 
G01 X66.7800 Y34.0475 
G01 X66.6955 Y34.1320 
G01 X64.3245 Y34.1320 
G01 X64.2400 Y34.0475 
G01 X64.1555 Y34.1320 
G01 X61.7845 Y34.1320 
G01 X61.7000 Y34.0475 
G01 X61.6155 Y34.1320 
G01 X59.2445 Y34.1320 
G01 X59.1600 Y34.0475 
G01 X59.0755 Y34.1320 
G01 X56.7045 Y34.1320 
G01 X56.6200 Y34.0475 
G01 X56.5355 Y34.1320 
G01 X54.1645 Y34.1320 
G01 X54.0800 Y34.0475 
G01 X53.9955 Y34.1320 
G01 X51.6245 Y34.1320 
G01 X51.5400 Y34.0475 
G01 X51.4555 Y34.1320 
G01 X49.0845 Y34.1320 
G01 X49.0000 Y34.0475 
G01 X48.9155 Y34.1320 
G01 X46.5445 Y34.1320 
G01 X46.4600 Y34.0475 
G01 X46.3755 Y34.1320 
G01 X44.0045 Y34.1320 
G01 X43.9200 Y34.0475 
G01 X43.8355 Y34.1320 
G01 X41.4645 Y34.1320 
G01 X41.3800 Y34.0475 
G01 X41.2955 Y34.1320 
G01 X38.9245 Y34.1320 
G01 X38.8400 Y34.0475 
G01 X38.7555 Y34.1320 
G01 X36.3845 Y34.1320 
G01 X36.3000 Y34.0475 
G01 X36.2155 Y34.1320 
G01 X33.8445 Y34.1320 
G01 X33.7600 Y34.0475 
G01 X33.6755 Y34.1320 
G01 X31.3045 Y34.1320 
G01 X31.2200 Y34.0475 
G01 X31.1355 Y34.1320 
G01 X28.7645 Y34.1320 
G01 X28.6800 Y34.0475 
G01 X28.5955 Y34.1320 
G01 X26.2245 Y34.1320 
G01 X24.5480 Y32.4555 
G01 X24.5480 Y30.0845 
G01 X24.6325 Y30.0000 
G01 X24.5480 Y29.9155 
G00 Z2.5400 
G00 X24.5480 Y4.6655 
G01 Z-0.1778 F254.00 
G01 X24.5480 Y2.2945 F508.00 
G01 X26.2245 Y0.6180 
G01 X28.5955 Y0.6180 
G01 X28.6800 Y0.7025 
G01 X28.7645 Y0.6180 
G01 X31.1355 Y0.6180 
G01 X31.2200 Y0.7025 
G01 X31.3045 Y0.6180 
G01 X33.6755 Y0.6180 
G01 X33.7600 Y0.7025 
G01 X33.8445 Y0.6180 
G01 X36.2155 Y0.6180 
G01 X36.3000 Y0.7025 
G01 X36.3845 Y0.6180 
G01 X38.7555 Y0.6180 
G01 X38.8400 Y0.7025 
G01 X38.9245 Y0.6180 
G01 X41.2955 Y0.6180 
G01 X41.3800 Y0.7025 
G01 X41.4645 Y0.6180 
G01 X43.8355 Y0.6180 
G01 X43.9200 Y0.7025 
G01 X44.0045 Y0.6180 
G01 X46.3755 Y0.6180 
G01 X46.4600 Y0.7025 
G01 X46.5445 Y0.6180 
G01 X48.9155 Y0.6180 
G01 X49.0000 Y0.7025 
G01 X49.0845 Y0.6180 
G01 X51.4555 Y0.6180 
G01 X51.5400 Y0.7025 
G01 X51.6245 Y0.6180 
G01 X53.9955 Y0.6180 
G01 X54.0800 Y0.7025 
G01 X54.1645 Y0.6180 
G01 X56.5355 Y0.6180 
G01 X56.6200 Y0.7025 
G01 X56.7045 Y0.6180 
G01 X59.0755 Y0.6180 
G01 X59.1600 Y0.7025 
G01 X59.2445 Y0.6180 
G01 X61.6155 Y0.6180 
G01 X61.7000 Y0.7025 
G01 X61.7845 Y0.6180 
G01 X64.1555 Y0.6180 
G01 X64.2400 Y0.7025 
G01 X64.3245 Y0.6180 
G01 X66.6955 Y0.6180 
G01 X66.7800 Y0.7025 
G01 X66.8645 Y0.6180 
G01 X69.2355 Y0.6180 
G01 X69.3200 Y0.7025 
G01 X69.4045 Y0.6180 
G01 X71.7755 Y0.6180 
G01 X73.4520 Y2.2945 
G01 X73.4520 Y4.6655 
G01 X73.3675 Y4.7500 
G01 X73.4520 Y4.8345 
G01 X73.4520 Y7.2055 
G01 X71.7755 Y8.8820 
G01 X69.4045 Y8.8820 
G01 X69.3200 Y8.7975 
G01 X69.2355 Y8.8820 
G01 X66.8645 Y8.8820 
G01 X66.7800 Y8.7975 
G01 X66.6955 Y8.8820 
G01 X64.3245 Y8.8820 
G01 X64.2400 Y8.7975 
G01 X64.1555 Y8.8820 
G01 X61.7845 Y8.8820 
G01 X61.7000 Y8.7975 
G01 X61.6155 Y8.8820 
G01 X59.2445 Y8.8820 
G01 X59.1600 Y8.7975 
G01 X59.0755 Y8.8820 
G01 X56.7045 Y8.8820 
G01 X56.6200 Y8.7975 
G01 X56.5355 Y8.8820 
G01 X54.1645 Y8.8820 
G01 X54.0800 Y8.7975 
G01 X53.9955 Y8.8820 
G01 X51.6245 Y8.8820 
G01 X51.5400 Y8.7975 
G01 X51.4555 Y8.8820 
G01 X49.0845 Y8.8820 
G01 X49.0000 Y8.7975 
G01 X48.9155 Y8.8820 
G01 X46.5445 Y8.8820 
G01 X46.4600 Y8.7975 
G01 X46.3755 Y8.8820 
G01 X44.0045 Y8.8820 
G01 X43.9200 Y8.7975 
G01 X43.8355 Y8.8820 
G01 X41.4645 Y8.8820 
G01 X41.3800 Y8.7975 
G01 X41.2955 Y8.8820 
G01 X38.9245 Y8.8820 
G01 X38.8400 Y8.7975 
G01 X38.7555 Y8.8820 
G01 X36.3845 Y8.8820 
G01 X36.3000 Y8.7975 
G01 X36.2155 Y8.8820 
G01 X33.8445 Y8.8820 
G01 X33.7600 Y8.7975 
G01 X33.6755 Y8.8820 
G01 X31.3045 Y8.8820 
G01 X31.2200 Y8.7975 
G01 X31.1355 Y8.8820 
G01 X28.7645 Y8.8820 
G01 X28.6800 Y8.7975 
G01 X28.5955 Y8.8820 
G01 X26.2245 Y8.8820 
G01 X24.5480 Y7.2055 
G01 X24.5480 Y4.8345 
G01 X24.6325 Y4.7500 
G01 X24.5480 Y4.6655 
G00 Z2.5400 
G00 X24.1480 Y30.0812 
G01 Z-0.1778 F254.00 
G01 X24.1480 Y27.3788 F508.00 
G01 X26.0588 Y25.4680 
G01 X71.9412 Y25.4680 
G01 X73.8520 Y27.3788 
G01 X73.8520 Y32.6212 
G01 X71.9412 Y34.5320 
G01 X26.0588 Y34.5320 
G01 X24.1480 Y32.6212 
G01 X24.1480 Y30.0812 
G00 Z2.5400 
G00 X24.1480 Y2.1288 
G01 Z-0.1778 F254.00 
G01 X26.0588 Y0.2180 F508.00 
G01 X71.9412 Y0.2180 
G01 X73.8520 Y2.1288 
G01 X73.8520 Y7.3712 
G01 X71.9412 Y9.2820 
G01 X26.0588 Y9.2820 
G01 X24.1480 Y7.3712 
G01 X24.1480 Y4.6688 
G01 X24.1480 Y2.1288 
G00 Z2.5400 
G00 Z2.540000
G00 X27.4100 Y3.4800 
G01 Z-0.2794 F254.00 
G01 Z2.540000
(R2.5400  P1.000000)
(G00 Z2.540000)
G00 X27.4100 Y6.0200 
G01 Z-0.812800
G01 Z2.540000
(G00 Z2.540000)
G00 X29.9500 Y3.4800 
G01 Z-0.812800
G01 Z2.540000
(G00 Z2.540000)
G00 X29.9500 Y6.0200 
G01 Z-0.812800
G01 Z2.540000
(G00 Z2.540000)
G00 X32.4900 Y3.4800 
G01 Z-0.812800
G01 Z2.540000
(G00 Z2.540000)
G00 X32.4900 Y6.0200 
G01 Z-0.812800
G01 Z2.540000
(G00 Z2.540000)
G00 X35.0300 Y3.4800 
G01 Z-0.812800
G01 Z2.540000
(G00 Z2.540000)
G00 X35.0300 Y6.0200 
G01 Z-0.812800
G01 Z2.540000
(G00 Z2.540000)
G00 X37.5700 Y3.4800 
G01 Z-0.812800
G01 Z2.540000
(G00 Z2.540000)
G00 X37.5700 Y6.0200 
G01 Z-0.812800
G01 Z2.540000
(G00 Z2.540000)
G00 X40.1100 Y3.4800 
G01 Z-0.812800
G01 Z2.540000
(G00 Z2.540000)
G00 X40.1100 Y6.0200 
G01 Z-0.812800
G01 Z2.540000
(G00 Z2.540000)
G00 X42.6500 Y3.4800 
G01 Z-0.812800
G01 Z2.540000
(G00 Z2.540000)
G00 X42.6500 Y6.0200 
G01 Z-0.812800
G01 Z2.540000
(G00 Z2.540000)
G00 X45.1900 Y3.4800 
G01 Z-0.812800
G01 Z2.540000
(G00 Z2.540000)
G00 X45.1900 Y6.0200 
G01 Z-0.812800
G01 Z2.540000
(G00 Z2.540000)
G00 X47.7300 Y3.4800 
G01 Z-0.812800
G01 Z2.540000
(G00 Z2.540000)
G00 X47.7300 Y6.0200 
G01 Z-0.812800
G01 Z2.540000
(G00 Z2.540000)
G00 X50.2700 Y3.4800 
G01 Z-0.812800
G01 Z2.540000
(G00 Z2.540000)
G00 X50.2700 Y6.0200 
G01 Z-0.812800
G01 Z2.540000
(G00 Z2.540000)
G00 X52.8100 Y3.4800 
G01 Z-0.812800
G01 Z2.540000
(G00 Z2.540000)
G00 X52.8100 Y6.0200 
G01 Z-0.812800
G01 Z2.540000
(G00 Z2.540000)
G00 X55.3500 Y3.4800 
G01 Z-0.812800
G01 Z2.540000
(G00 Z2.540000)
G00 X55.3500 Y6.0200 
G01 Z-0.812800
G01 Z2.540000
(G00 Z2.540000)
G00 X57.8900 Y3.4800 
G01 Z-0.812800
G01 Z2.540000
(G00 Z2.540000)
G00 X57.8900 Y6.0200 
G01 Z-0.812800
G01 Z2.540000
(G00 Z2.540000)
G00 X60.4300 Y3.4800 
G01 Z-0.812800
G01 Z2.540000
(G00 Z2.540000)
G00 X60.4300 Y6.0200 
G01 Z-0.812800
G01 Z2.540000
(G00 Z2.540000)
G00 X62.9700 Y3.4800 
G01 Z-0.812800
G01 Z2.540000
(G00 Z2.540000)
G00 X62.9700 Y6.0200 
G01 Z-0.812800
G01 Z2.540000
(G00 Z2.540000)
G00 X65.5100 Y3.4800 
G01 Z-0.812800
G01 Z2.540000
(G00 Z2.540000)
G00 X65.5100 Y6.0200 
G01 Z-0.812800
G01 Z2.540000
(G00 Z2.540000)
G00 X68.0500 Y3.4800 
G01 Z-0.812800
G01 Z2.540000
(G00 Z2.540000)
G00 X68.0500 Y6.0200 
G01 Z-0.812800
G01 Z2.540000
(G00 Z2.540000)
G00 X70.5900 Y3.4800 
G01 Z-0.812800
G01 Z2.540000
(G00 Z2.540000)
G00 X70.5900 Y6.0200 
G01 Z-0.812800
G01 Z2.540000
(G00 Z2.540000)
G00 X27.4100 Y28.7300 
G01 Z-0.812800
G01 Z2.540000
(G00 Z2.540000)
G00 X27.4100 Y31.2700 
G01 Z-0.812800
G01 Z2.540000
(G00 Z2.540000)
G00 X29.9500 Y28.7300 
G01 Z-0.812800
G01 Z2.540000
(G00 Z2.540000)
G00 X29.9500 Y31.2700 
G01 Z-0.812800
G01 Z2.540000
(G00 Z2.540000)
G00 X32.4900 Y28.7300 
G01 Z-0.812800
G01 Z2.540000
(G00 Z2.540000)
G00 X32.4900 Y31.2700 
G01 Z-0.812800
G01 Z2.540000
(G00 Z2.540000)
G00 X35.0300 Y28.7300 
G01 Z-0.812800
G01 Z2.540000
(G00 Z2.540000)
G00 X35.0300 Y31.2700 
G01 Z-0.812800
G01 Z2.540000
(G00 Z2.540000)
G00 X37.5700 Y28.7300 
G01 Z-0.812800
G01 Z2.540000
(G00 Z2.540000)
G00 X37.5700 Y31.2700 
G01 Z-0.812800
G01 Z2.540000
(G00 Z2.540000)
G00 X40.1100 Y28.7300 
G01 Z-0.812800
G01 Z2.540000
(G00 Z2.540000)
G00 X40.1100 Y31.2700 
G01 Z-0.812800
G01 Z2.540000
(G00 Z2.540000)
G00 X42.6500 Y28.7300 
G01 Z-0.812800
G01 Z2.540000
(G00 Z2.540000)
G00 X42.6500 Y31.2700 
G01 Z-0.812800
G01 Z2.540000
(G00 Z2.540000)
G00 X45.1900 Y28.7300 
G01 Z-0.812800
G01 Z2.540000
(G00 Z2.540000)
G00 X45.1900 Y31.2700 
G01 Z-0.812800
G01 Z2.540000
(G00 Z2.540000)
G00 X47.7300 Y28.7300 
G01 Z-0.812800
G01 Z2.540000
(G00 Z2.540000)
G00 X47.7300 Y31.2700 
G01 Z-0.812800
G01 Z2.540000
(G00 Z2.540000)
G00 X50.2700 Y28.7300 
G01 Z-0.812800
G01 Z2.540000
(G00 Z2.540000)
G00 X50.2700 Y31.2700 
G01 Z-0.812800
G01 Z2.540000
(G00 Z2.540000)
G00 X52.8100 Y28.7300 
G01 Z-0.812800
G01 Z2.540000
(G00 Z2.540000)
G00 X52.8100 Y31.2700 
G01 Z-0.812800
G01 Z2.540000
(G00 Z2.540000)
G00 X55.3500 Y28.7300 
G01 Z-0.812800
G01 Z2.540000
(G00 Z2.540000)
G00 X55.3500 Y31.2700 
G01 Z-0.812800
G01 Z2.540000
(G00 Z2.540000)
G00 X57.8900 Y28.7300 
G01 Z-0.812800
G01 Z2.540000
(G00 Z2.540000)
G00 X57.8900 Y31.2700 
G01 Z-0.812800
G01 Z2.540000
(G00 Z2.540000)
G00 X60.4300 Y28.7300 
G01 Z-0.812800
G01 Z2.540000
(G00 Z2.540000)
G00 X60.4300 Y31.2700 
G01 Z-0.812800
G01 Z2.540000
(G00 Z2.540000)
G00 X62.9700 Y28.7300 
G01 Z-0.812800
G01 Z2.540000
(G00 Z2.540000)
G00 X62.9700 Y31.2700 
G01 Z-0.812800
G01 Z2.540000
(G00 Z2.540000)
G00 X65.5100 Y28.7300 
G01 Z-0.812800
G01 Z2.540000
(G00 Z2.540000)
G00 X65.5100 Y31.2700 
G01 Z-0.812800
G01 Z2.540000
(G00 Z2.540000)
G00 X68.0500 Y28.7300 
G01 Z-0.812800
G01 Z2.540000
(G00 Z2.540000)
G00 X68.0500 Y31.2700 
G01 Z-0.812800
G01 Z2.540000
(G00 Z2.540000)
G00 X70.5900 Y28.7300 
G01 Z-0.812800
G01 Z2.540000
(G00 Z2.540000)
G00 X70.5900 Y31.2700 
G01 Z-0.812800
G01 Z2.540000
G00 Z12.7000 
M05
M02
