(.../Documents/EAGLE/ulps/pcb-gcode.ulp)
(Copyright 2005 - 2012 by John Johnson)
(See readme.txt for licensing terms.)
(This file generated from the board:)
(.../Senior_Design/power_layout_SLIM.brd)
(Current profile is .../EAGLE/ulps/profiles/generic.pp  )
(This file generated 4/15/2020 7:00 PM)
(Settings from pcb-machine.h)
(  Tool Size)
(0.8000 )
(Z Axis Settings)
(  High     Up        Down     Drill)
(12.7000 	2.5400 	-0.1778 	-0.8128 )
(spindle on time = 3.0000)
(milling depth = -0.2540)
(text depth = -0.1270)
(tool change at 12.7000 15.2400 25.4000 )
(feed rate xy = F508.00 )
(feed rate z  = F254.00 )
(Settings from pcb-defaults.h)
(isolate min = 0.1000)
(isolate max = 2.0000)
(isolate step = 0.4000)
(Generated top outlines, top drill, )
(Unit of measure: mm)
( Tool|       Size       |  Min Sub |  Max Sub |   Count )
( T01  1.016mm 0.0400in 0.0000in 0.0000in )
(Metric Mode)
G21
(Absolute Coordinates)
G90
M05
G00 Z25.4000 
G00 X12.7000 Y15.2400 
M06 T01  ; 1.0160 
G01 Z0.0000 F254.00 
M06 T01  ; 1.0160 
G00 Z2.5400 
M03
G04 P3.000000
G00 Z2.540000
G00 X32.4900 Y31.2700 
G01 Z-0.8128 F254.00 
G01 Z2.540000
(R2.5400  P1.000000)
(G00 Z2.540000)
G00 X32.4900 Y3.4800 
G01 Z-0.812800
G01 Z2.540000
(G00 Z2.540000)
G00 X32.4900 Y6.0200 
G01 Z-0.812800
G01 Z2.540000
(G00 Z2.540000)
G00 X32.4900 Y28.7300 
G01 Z-0.812800
G01 Z2.540000
(G00 Z2.540000)
G00 X35.0300 Y31.2700 
G01 Z-0.812800
G01 Z2.540000
(G00 Z2.540000)
G00 X35.0300 Y3.4800 
G01 Z-0.812800
G01 Z2.540000
(G00 Z2.540000)
G00 X35.0300 Y6.0200 
G01 Z-0.812800
G01 Z2.540000
(G00 Z2.540000)
G00 X35.0300 Y28.7300 
G01 Z-0.812800
G01 Z2.540000
(G00 Z2.540000)
G00 X37.5700 Y31.2700 
G01 Z-0.812800
G01 Z2.540000
(G00 Z2.540000)
G00 X37.5700 Y3.4800 
G01 Z-0.812800
G01 Z2.540000
(G00 Z2.540000)
G00 X37.5700 Y6.0200 
G01 Z-0.812800
G01 Z2.540000
(G00 Z2.540000)
G00 X37.5700 Y28.7300 
G01 Z-0.812800
G01 Z2.540000
(G00 Z2.540000)
G00 X40.1100 Y31.2700 
G01 Z-0.812800
G01 Z2.540000
(G00 Z2.540000)
G00 X40.1100 Y3.4800 
G01 Z-0.812800
G01 Z2.540000
(G00 Z2.540000)
G00 X40.1100 Y6.0200 
G01 Z-0.812800
G01 Z2.540000
(G00 Z2.540000)
G00 X40.1100 Y28.7300 
G01 Z-0.812800
G01 Z2.540000
(G00 Z2.540000)
G00 X42.6500 Y31.2700 
G01 Z-0.812800
G01 Z2.540000
(G00 Z2.540000)
G00 X42.6500 Y3.4800 
G01 Z-0.812800
G01 Z2.540000
(G00 Z2.540000)
G00 X42.6500 Y6.0200 
G01 Z-0.812800
G01 Z2.540000
(G00 Z2.540000)
G00 X42.6500 Y28.7300 
G01 Z-0.812800
G01 Z2.540000
(G00 Z2.540000)
G00 X45.1900 Y31.2700 
G01 Z-0.812800
G01 Z2.540000
(G00 Z2.540000)
G00 X45.1900 Y3.4800 
G01 Z-0.812800
G01 Z2.540000
(G00 Z2.540000)
G00 X45.1900 Y6.0200 
G01 Z-0.812800
G01 Z2.540000
(G00 Z2.540000)
G00 X45.1900 Y28.7300 
G01 Z-0.812800
G01 Z2.540000
(G00 Z2.540000)
G00 X47.7300 Y31.2700 
G01 Z-0.812800
G01 Z2.540000
(G00 Z2.540000)
G00 X47.7300 Y3.4800 
G01 Z-0.812800
G01 Z2.540000
(G00 Z2.540000)
G00 X47.7300 Y6.0200 
G01 Z-0.812800
G01 Z2.540000
(G00 Z2.540000)
G00 X47.7300 Y28.7300 
G01 Z-0.812800
G01 Z2.540000
(G00 Z2.540000)
G00 X50.2700 Y31.2700 
G01 Z-0.812800
G01 Z2.540000
(G00 Z2.540000)
G00 X50.2700 Y3.4800 
G01 Z-0.812800
G01 Z2.540000
(G00 Z2.540000)
G00 X50.2700 Y6.0200 
G01 Z-0.812800
G01 Z2.540000
(G00 Z2.540000)
G00 X50.2700 Y28.7300 
G01 Z-0.812800
G01 Z2.540000
(G00 Z2.540000)
G00 X52.8100 Y31.2700 
G01 Z-0.812800
G01 Z2.540000
(G00 Z2.540000)
G00 X52.8100 Y3.4800 
G01 Z-0.812800
G01 Z2.540000
(G00 Z2.540000)
G00 X52.8100 Y6.0200 
G01 Z-0.812800
G01 Z2.540000
(G00 Z2.540000)
G00 X52.8100 Y28.7300 
G01 Z-0.812800
G01 Z2.540000
(G00 Z2.540000)
G00 X55.3500 Y31.2700 
G01 Z-0.812800
G01 Z2.540000
(G00 Z2.540000)
G00 X55.3500 Y3.4800 
G01 Z-0.812800
G01 Z2.540000
(G00 Z2.540000)
G00 X55.3500 Y6.0200 
G01 Z-0.812800
G01 Z2.540000
(G00 Z2.540000)
G00 X55.3500 Y28.7300 
G01 Z-0.812800
G01 Z2.540000
(G00 Z2.540000)
G00 X57.8900 Y31.2700 
G01 Z-0.812800
G01 Z2.540000
(G00 Z2.540000)
G00 X57.8900 Y3.4800 
G01 Z-0.812800
G01 Z2.540000
(G00 Z2.540000)
G00 X57.8900 Y6.0200 
G01 Z-0.812800
G01 Z2.540000
(G00 Z2.540000)
G00 X57.8900 Y28.7300 
G01 Z-0.812800
G01 Z2.540000
(G00 Z2.540000)
G00 X60.4300 Y31.2700 
G01 Z-0.812800
G01 Z2.540000
(G00 Z2.540000)
G00 X60.4300 Y3.4800 
G01 Z-0.812800
G01 Z2.540000
(G00 Z2.540000)
G00 X60.4300 Y6.0200 
G01 Z-0.812800
G01 Z2.540000
(G00 Z2.540000)
G00 X60.4300 Y28.7300 
G01 Z-0.812800
G01 Z2.540000
(G00 Z2.540000)
G00 X62.9700 Y31.2700 
G01 Z-0.812800
G01 Z2.540000
(G00 Z2.540000)
G00 X62.9700 Y3.4800 
G01 Z-0.812800
G01 Z2.540000
(G00 Z2.540000)
G00 X62.9700 Y6.0200 
G01 Z-0.812800
G01 Z2.540000
(G00 Z2.540000)
G00 X62.9700 Y28.7300 
G01 Z-0.812800
G01 Z2.540000
(G00 Z2.540000)
G00 X65.5100 Y31.2700 
G01 Z-0.812800
G01 Z2.540000
(G00 Z2.540000)
G00 X65.5100 Y3.4800 
G01 Z-0.812800
G01 Z2.540000
(G00 Z2.540000)
G00 X65.5100 Y6.0200 
G01 Z-0.812800
G01 Z2.540000
(G00 Z2.540000)
G00 X65.5100 Y28.7300 
G01 Z-0.812800
G01 Z2.540000
(G00 Z2.540000)
G00 X68.0500 Y31.2700 
G01 Z-0.812800
G01 Z2.540000
(G00 Z2.540000)
G00 X68.0500 Y3.4800 
G01 Z-0.812800
G01 Z2.540000
(G00 Z2.540000)
G00 X68.0500 Y6.0200 
G01 Z-0.812800
G01 Z2.540000
(G00 Z2.540000)
G00 X68.0500 Y28.7300 
G01 Z-0.812800
G01 Z2.540000
(G00 Z2.540000)
G00 X70.5900 Y31.2700 
G01 Z-0.812800
G01 Z2.540000
(G00 Z2.540000)
G00 X70.5900 Y3.4800 
G01 Z-0.812800
G01 Z2.540000
(G00 Z2.540000)
G00 X70.5900 Y6.0200 
G01 Z-0.812800
G01 Z2.540000
(G00 Z2.540000)
G00 X70.5900 Y28.7300 
G01 Z-0.812800
G01 Z2.540000
(G00 Z2.540000)
G00 X27.4100 Y31.2700 
G01 Z-0.812800
G01 Z2.540000
(G00 Z2.540000)
G00 X27.4100 Y3.4800 
G01 Z-0.812800
G01 Z2.540000
(G00 Z2.540000)
G00 X27.4100 Y6.0200 
G01 Z-0.812800
G01 Z2.540000
(G00 Z2.540000)
G00 X27.4100 Y28.7300 
G01 Z-0.812800
G01 Z2.540000
(G00 Z2.540000)
G00 X29.9500 Y31.2700 
G01 Z-0.812800
G01 Z2.540000
(G00 Z2.540000)
G00 X29.9500 Y3.4800 
G01 Z-0.812800
G01 Z2.540000
(G00 Z2.540000)
G00 X29.9500 Y6.0200 
G01 Z-0.812800
G01 Z2.540000
(G00 Z2.540000)
G00 X29.9500 Y28.7300 
G01 Z-0.812800
G01 Z2.540000
T01 
G00 Z12.7000 
M05
M02
